!!!COM: Haydn, Franz Joseph
!!!OPR: Symphony in G Major
!!!OTL: Affettuoso 
!!!OMV: 4
!!!SCT: H I:94
!!!SCA: Thematisch-bibliographisches Werkevererzeichnis (A. van Hoboken)
!!!YOR: Dover Edition
!!!EED: Frances Bennion
!!!ENC: Frances Bennion
!!!CDT: 1732/3/31/-1809/5/31/
!!!OCY: Österreich
!!!YEC: Copyright (c) 1994, 2000 Center for Computer Assisted Research in the Humanities
!!!YEM: Rights to all derivative editions reserved.
!!!YEM: Refer to licensing agreement for further details.
!!!YEN: United States of America
**kern	**kern	**kern	**kern	**kern	**kern	**kern	**kern	**kern	**kern	**kern	**kern	**kern	**kern	**kern	**kern
*k[f#]	*k[]	*k[]	*k[f#]	*k[f#]	*k[f#]	*k[f#]	*k[f#]	*k[f#]	*k[f#]	*k[f#]	*k[f#]	*k[f#]	*k[]	*k[]	*k[]
*G:	*G:	*G:	*G:	*G:	*G:	*G:	*G:	*G:	*G:	*G:	*G:	*G:	*G:	*G:	*G:
*clefF	*clefF	*clefF4	*clefF	*clefF	*clefC3	*clefF4	*clefF4	*clefF	*clefF	*clefF	*clefF4	*clefF4	*clefF	*clefF	*clefF
*M2/4	*M2/4	*M2/4	*M2/4	*M2/4	*M2/4	*M2/4	*M2/4	*M2/4	*M2/4	*M2/4	*M2/4	*M2/4	*M2/4	*M2/4	*M2/4
*tb16	*tb16	*tb16	*tb16	*tb16	*tb16	*tb16	*tb16	*tb16	*tb16	*tb16	*tb16	*tb16	*tb16	*tb16	*tb16
=0-	=0-	=0-	=0-	=0-	=0-	=0-	=0-	=0-	=0-	=0-	=0-	=0-	=0-	=0-	=0-
4.r	4.r	4.r	4.r	4.r	4.r	4.r	4.r	4.r	4.r	4.r	4.r	4.r	4.r	4.r	4.r
8r	8r	8r	16d	8r	8r	8r	8r	8r	8r	8r	8r	8r	8r	8r	8r
.	.	.	16g	.	.	.	.	.	.	.	.	.	.	.	.
=1	=1	=1	=1	=1	=1	=1	=1	=1	=1	=1	=1	=1	=1	=1	=1
2r	2r	2r	4b	8B 8d	8d	8G	8G	2r	2r	2r	2r	2r	2r	2r	2r
.	.	.	.	8r	8r	8r	8r	.	.	.	.	.	.	.	.
.	.	.	8cc	8f# 8A	8c	8D	8D	.	.	.	.	.	.	.	.
.	.	.	8a	8r	8r	8r	8r	.	.	.	.	.	.	.	.
=2	=2	=2	=2	=2	=2	=2	=2	=2	=2	=2	=2	=2	=2	=2	=2
2r	2r	2r	8g	8g 8G	8B	8GG	8GG	2r	2r	2r	2r	2r	2r	2r	2r
.	.	.	8g	4.r	4.r	4r	4r	.	.	.	.	.	.	.	.
.	.	.	8g	.	.	.	.	.	.	.	.	.	.	.	.
.	.	.	8b	.	.	8G	8G	.	.	.	.	.	.	.	.
=3	=3	=3	=3	=3	=3	=3	=3	=3	=3	=3	=3	=3	=3	=3	=3
2r	2r	2r	8a	2d	2r	8F#	8F#	2r	2r	2r	2r	2r	2r	2r	2r
.	.	.	8cc	.	.	8A	8A	.	.	.	.	.	.	.	.
.	.	.	8b	.	.	8G	8G	.	.	.	.	.	.	.	.
.	.	.	8dd	.	.	8B	8B	.	.	.	.	.	.	.	.
=4	=4	=4	=4	=4	=4	=4	=4	=4	=4	=4	=4	=4	=4	=4	=4
2r	2r	2r	8dd	8e	2r	8A	8A	2r	2r	2r	2r	2r	2r	2r	2r
.	.	.	8cc	8f#	.	8D	8D	.	.	.	.	.	.	.	.
.	.	.	8b	8g	.	8G	8G	.	.	.	.	.	.	.	.
.	.	.	16d	8r	.	8r	8r	.	.	.	.	.	.	.	.
.	.	.	16a	.	.	.	.	.	.	.	.	.	.	.	.
=5	=5	=5	=5	=5	=5	=5	=5	=5	=5	=5	=5	=5	=5	=5	=5
2r	2r	2r	4cc	4a	4d	4F#	4F#	2r	2r	2r	2r	2r	2r	2r	2r
.	.	.	8dd	8r	8r	8r	8r	.	.	.	.	.	.	.	.
.	.	.	8b	8g	8d	8G	8G	.	.	.	.	.	.	.	.
=6	=6	=6	=6	=6	=6	=6	=6	=6	=6	=6	=6	=6	=6	=6	=6
2r	2r	2r	8a	4f#	4d	4D	4D	2r	2r	2r	2r	2r	2r	2r	2r
.	.	.	8a	.	.	.	.	.	.	.	.	.	.	.	.
.	.	.	8a	8r	8r	8r	8r	.	.	.	.	.	.	.	.
.	.	.	8ee	8f#	8a	8c	8c	.	.	.	.	.	.	.	.
=7	=7	=7	=7	=7	=7	=7	=7	=7	=7	=7	=7	=7	=7	=7	=7
2r	2r	2r	8dd	8g	8g	8B	8B	2r	2r	2r	2r	2r	2r	2r	2r
.	.	.	8cc	8a	8e	8c	8c	.	.	.	.	.	.	.	.
.	.	.	8b	8g	8d	8d	8d	.	.	.	.	.	.	.	.
.	.	.	8a	8f#	8c	8D	8D	.	.	.	.	.	.	.	.
=8	=8	=8	=8	=8	=8	=8	=8	=8	=8	=8	=8	=8	=8	=8	=8
4.r	2r	2r	8g	8g	8B	8G	8G	2r	2r	2r	2r	2r	2r	2r	2r
.	.	.	8g	4.r	4.r	4.r	4.r	.	.	.	.	.	.	.	.
.	.	.	8g	.	.	.	.	.	.	.	.	.	.	.	.
16dd	.	.	16d	.	.	.	.	.	.	.	.	.	.	.	.
16gg	.	.	16g	.	.	.	.	.	.	.	.	.	.	.	.
=9	=9	=9	=9	=9	=9	=9	=9	=9	=9	=9	=9	=9	=9	=9	=9
4bb	2r	2r	4b	8B 8d	8d	8G	8G	2r	2r	2r	2r	2r	2r	2r	2r
.	.	.	.	8r	8r	8r	8r	.	.	.	.	.	.	.	.
8ccc	.	.	8cc	8A 8f#	8c	8D	8D	.	.	.	.	.	.	.	.
8aa	.	.	8a	8r	8r	8r	8r	.	.	.	.	.	.	.	.
=10	=10	=10	=10	=10	=10	=10	=10	=10	=10	=10	=10	=10	=10	=10	=10
8gg	2r	2r	8g	8g 8G	8B	8GG	8GG	2r	2r	2r	2r	2r	2r	2r	2r
8gg	.	.	8g	4.r	4.r	4r	4r	.	.	.	.	.	.	.	.
8gg	.	.	8g	.	.	.	.	.	.	.	.	.	.	.	.
8bb	.	.	8b	.	.	8G	8G	.	.	.	.	.	.	.	.
=11	=11	=11	=11	=11	=11	=11	=11	=11	=11	=11	=11	=11	=11	=11	=11
8aa	2r	2r	8a	2d	2r	8F#	8F#	2r	2r	2r	2r	2r	2r	2r	2r
8ccc	.	.	8cc	.	.	8A	8A	.	.	.	.	.	.	.	.
8bb	.	.	8b	.	.	8G	8G	.	.	.	.	.	.	.	.
8ddd	.	.	8dd	.	.	8B	8B	.	.	.	.	.	.	.	.
=12	=12	=12	=12	=12	=12	=12	=12	=12	=12	=12	=12	=12	=12	=12	=12
8ddd	2r	2r	8dd	8e	2r	8A	8A	2r	2r	2r	2r	2r	2r	2r	2r
8ccc	.	.	8cc	8f#	.	8D	8D	.	.	.	.	.	.	.	.
8bb	.	.	8b	8g	.	8G	8G	.	.	.	.	.	.	.	.
16dd	.	.	16d	8r	.	8r	8r	.	.	.	.	.	.	.	.
16aa	.	.	16a	.	.	.	.	.	.	.	.	.	.	.	.
=13	=13	=13	=13	=13	=13	=13	=13	=13	=13	=13	=13	=13	=13	=13	=13
4ccc	2r	2r	4cc	4a	4d	4F#	4F#	2r	2r	2r	2r	2r	2r	2r	2r
8ddd	.	.	8dd	8r	8r	8r	8r	.	.	.	.	.	.	.	.
8bb	.	.	8b	8g	8d	8G	8G	.	.	.	.	.	.	.	.
=14	=14	=14	=14	=14	=14	=14	=14	=14	=14	=14	=14	=14	=14	=14	=14
8aa	2r	2r	8a	4f#	4d	4D	4D	2r	2r	2r	2r	2r	2r	2r	2r
8aa	.	.	8a	.	.	.	.	.	.	.	.	.	.	.	.
8aa	.	.	8a	8r	8r	8r	8r	.	.	.	.	.	.	.	.
8eee	.	.	8ee	8f#	8a	8c	8c	.	.	.	.	.	.	.	.
=15	=15	=15	=15	=15	=15	=15	=15	=15	=15	=15	=15	=15	=15	=15	=15
8ddd	2r	2r	8dd	8g	8g	8B	8B	2r	2r	2r	2r	2r	2r	2r	2r
8ccc	.	.	8cc	8a	8e	8c	8c	.	.	.	.	.	.	.	.
8bb	.	.	8b	8g	8d	8d	8d	.	.	.	.	.	.	.	.
8aa	.	.	8a	8f#	8c	8D	8D	.	.	.	.	.	.	.	.
=16	=16	=16	=16	=16	=16	=16	=16	=16	=16	=16	=16	=16	=16	=16	=16
8gg	2r	2r	8g	8g	8B	8G	8G	2r	2r	2r	2r	2r	2r	2r	2r
8gg	.	.	8g	4r	4r	4.r	4.r	.	.	.	.	.	.	.	.
8gg	.	.	8g	.	.	.	.	.	.	.	.	.	.	.	.
8r	.	.	8bb	8dd	8g	.	.	.	.	.	.	.	.	.	.
=17	=17	=17	=17	=17	=17	=17	=17	=17	=17	=17	=17	=17	=17	=17	=17
2r	2r	2r	8aa	4dd	4f#	2r	2r	2r	2r	2r	2r	2r	2r	2r	2r
.	.	.	8ddd	.	.	.	.	.	.	.	.	.	.	.	.
.	.	.	8dd	8r	8r	.	.	.	.	.	.	.	.	.	.
.	.	.	8gg	8cc#	8e	.	.	.	.	.	.	.	.	.	.
=18	=18	=18	=18	=18	=18	=18	=18	=18	=18	=18	=18	=18	=18	=18	=18
2r	2r	2r	16ff#	4dd	4d	4.r	4.r	2r	2r	2r	2r	2r	2r	2r	2r
.	.	.	16gg	.	.	.	.	.	.	.	.	.	.	.	.
.	.	.	16aa	.	.	.	.	.	.	.	.	.	.	.	.
.	.	.	16ff#	.	.	.	.	.	.	.	.	.	.	.	.
.	.	.	8dd	8r	8r	.	.	.	.	.	.	.	.	.	.
.	.	.	8ee	8g	8c	8c	8c	.	.	.	.	.	.	.	.
=19	=19	=19	=19	=19	=19	=19	=19	=19	=19	=19	=19	=19	=19	=19	=19
2r	2r	2r	8dd	4g	4B	4B	4B	2r	2r	2r	2r	2r	2r	2r	2r
.	.	.	8gg	.	.	.	.	.	.	.	.	.	.	.	.
.	.	.	8g	8r	8r	8r	8r	.	.	.	.	.	.	.	.
.	.	.	8cc	8f#	8A	8A	8A	.	.	.	.	.	.	.	.
=20	=20	=20	=20	=20	=20	=20	=20	=20	=20	=20	=20	=20	=20	=20	=20
2r	2r	2r	16b	4g	4G	4G	4G	2r	2r	2r	2r	2r	2r	2r	2r
.	.	.	16cc	.	.	.	.	.	.	.	.	.	.	.	.
.	.	.	16dd	.	.	.	.	.	.	.	.	.	.	.	.
.	.	.	16b	.	.	.	.	.	.	.	.	.	.	.	.
.	.	.	8g	8r	8r	8r	8r	.	.	.	.	.	.	.	.
.	.	.	16g	[8G	8d	8BB	8BB	.	.	.	.	.	.	.	.
.	.	.	16f#	.	.	.	.	.	.	.	.	.	.	.	.
=21	=21	=21	=21	=21	=21	=21	=21	=21	=21	=21	=21	=21	=21	=21	=21
2r	2r	2r	8e	8G]	4e	4C	4C	2r	2r	2r	2r	2r	2r	2r	2r
.	.	.	16a	4A	.	.	.	.	.	.	.	.	.	.	.
.	.	.	16g	.	.	.	.	.	.	.	.	.	.	.	.
.	.	.	8f#	.	4f#	4D	4D	.	.	.	.	.	.	.	.
.	.	.	16b	[8B	.	.	.	.	.	.	.	.	.	.	.
.	.	.	16a	.	.	.	.	.	.	.	.	.	.	.	.
=22	=22	=22	=22	=22	=22	=22	=22	=22	=22	=22	=22	=22	=22	=22	=22
2r	2r	2r	8g	8B]	4g	4E	4E	2r	2r	2r	2r	2r	2r	2r	2r
.	.	.	16cc	4c	.	.	.	.	.	.	.	.	.	.	.
.	.	.	16b	.	.	.	.	.	.	.	.	.	.	.	.
.	.	.	8a	.	4a	4F#	4F#	.	.	.	.	.	.	.	.
.	.	.	16dd	[8d	.	.	.	.	.	.	.	.	.	.	.
.	.	.	16cc	.	.	.	.	.	.	.	.	.	.	.	.
=23	=23	=23	=23	=23	=23	=23	=23	=23	=23	=23	=23	=23	=23	=23	=23
2r	2r	2r	8b	8d]	4b	4G	4G	2r	2r	2r	2r	2r	2r	2r	2r
.	.	.	8gg	8b	.	.	.	.	.	.	.	.	.	.	.
.	.	.	8ee	8g	8r	8r	8r	.	.	.	.	.	.	.	.
.	.	.	8cc#	8g	8e	8E	8E	.	.	.	.	.	.	.	.
=24	=24	=24	=24	=24	=24	=24	=24	=24	=24	=24	=24	=24	=24	=24	=24
2r	2r	2r	8dd	2f#	2d	[2D	[2D	2r	2r	2r	2r	2r	2r	2r	2r
.	.	.	8aa	.	.	.	.	.	.	.	.	.	.	.	.
.	.	.	8ff#	.	.	.	.	.	.	.	.	.	.	.	.
.	.	.	8dd	.	.	.	.	.	.	.	.	.	.	.	.
=25	=25	=25	=25	=25	=25	=25	=25	=25	=25	=25	=25	=25	=25	=25	=25
2r	2r	2r	8cc#	2g	2e	2D_	2D_	2r	2r	2r	2r	2r	2r	2r	2r
.	.	.	8gg	.	.	.	.	.	.	.	.	.	.	.	.
.	.	.	8ee	.	.	.	.	.	.	.	.	.	.	.	.
.	.	.	8cc#	.	.	.	.	.	.	.	.	.	.	.	.
=26	=26	=26	=26	=26	=26	=26	=26	=26	=26	=26	=26	=26	=26	=26	=26
2r	2r	2r	4.dd	8f#	4d	2D_	2D_	2r	2r	2r	2r	2r	2r	2r	2r
.	.	.	.	16dd	.	.	.	.	.	.	.	.	.	.	.
.	.	.	.	16cc	.	.	.	.	.	.	.	.	.	.	.
.	.	.	.	8b	4r	.	.	.	.	.	.	.	.	.	.
.	.	.	16dd	16b	.	.	.	.	.	.	.	.	.	.	.
.	.	.	16cc	16a	.	.	.	.	.	.	.	.	.	.	.
=27	=27	=27	=27	=27	=27	=27	=27	=27	=27	=27	=27	=27	=27	=27	=27
2r	2r	2r	8b	4g#	8r	8D]	8D]	2r	2r	2r	2r	2r	2r	2r	2r
.	.	.	8ff	.	8b	8d	8d	.	.	.	.	.	.	.	.
.	.	.	8ee	8a	8cc	8c	8c	.	.	.	.	.	.	.	.
.	.	.	16cc	16a	8r	8r	8r	.	.	.	.	.	.	.	.
.	.	.	16b	16g	.	.	.	.	.	.	.	.	.	.	.
=28	=28	=28	=28	=28	=28	=28	=28	=28	=28	=28	=28	=28	=28	=28	=28
2r	2r	2r	8a	4f#	8r	8r	8r	2r	2r	2r	2r	2r	2r	2r	2r
.	.	.	8ee	.	8a	8c	8c	.	.	.	.	.	.	.	.
.	.	.	8dd	8g	8b	8B	8B	.	.	.	.	.	.	.	.
.	.	.	16gg	8d	8g	8BB	8BB	.	.	.	.	.	.	.	.
.	.	.	16ff#	.	.	.	.	.	.	.	.	.	.	.	.
=29	=29	=29	=29	=29	=29	=29	=29	=29	=29	=29	=29	=29	=29	=29	=29
2r	2r	2r	16ee	4e	4g	4.C	4.C	2r	2r	2r	2r	2r	2r	2r	2r
.	.	.	16dd	.	.	.	.	.	.	.	.	.	.	.	.
.	.	.	16cc	.	.	.	.	.	.	.	.	.	.	.	.
.	.	.	16b	.	.	.	.	.	.	.	.	.	.	.	.
.	.	.	16a	8r	8r	.	.	.	.	.	.	.	.	.	.
.	.	.	16g	.	.	.	.	.	.	.	.	.	.	.	.
.	.	.	16f#	8e	8c#	8C#	8C#	.	.	.	.	.	.	.	.
.	.	.	16e	.	.	.	.	.	.	.	.	.	.	.	.
=30	=30	=30	=30	=30	=30	=30	=30	=30	=30	=30	=30	=30	=30	=30	=30
2r	2r	2r	4d	4d	4d	4D	4D	2r	2r	2r	2r	2r	2r	2r	2r
.	.	.	16e	4r	4r	4r	4r	.	.	.	.	.	.	.	.
.	.	.	16f#	.	.	.	.	.	.	.	.	.	.	.	.
.	.	.	16g	.	.	.	.	.	.	.	.	.	.	.	.
.	.	.	16a	.	.	.	.	.	.	.	.	.	.	.	.
=31	=31	=31	=31	=31	=31	=31	=31	=31	=31	=31	=31	=31	=31	=31	=31
4bb	2r	2r	4b	8B 8d	8d	8G	8G	2r	2r	2r	4B	2r	2r	2r	2r
.	.	.	.	8r	8r	8r	8r	.	.	.	.	.	.	.	.
8ccc	.	.	8cc	8A 8f#	8c	8D	8D	.	.	.	8c	.	.	.	.
8aa	.	.	8a	8r	8r	8r	8r	.	.	.	8A	.	.	.	.
=32	=32	=32	=32	=32	=32	=32	=32	=32	=32	=32	=32	=32	=32	=32	=32
8gg	2r	2r	8g	8G 8g	8B	8GG	8GG	2r	2r	2r	8G	2r	2r	2r	2r
8gg	.	.	8g	4.r	4.r	4r	4r	.	.	.	8G	.	.	.	.
8gg	.	.	8g	.	.	.	.	.	.	.	8G	.	.	.	.
8bb	.	.	8b	.	.	8G	8G	.	.	.	8B	.	.	.	.
=33	=33	=33	=33	=33	=33	=33	=33	=33	=33	=33	=33	=33	=33	=33	=33
8aa	2r	2r	8a	2d	2r	8F#	8F#	2r	2r	2r	8A	2r	2r	2r	2r
8ccc	.	.	8cc	.	.	8A	8A	.	.	.	8c	.	.	.	.
8bb	.	.	8b	.	.	8G	8G	.	.	.	8B	.	.	.	.
8ddd	.	.	8dd	.	.	8B	8B	.	.	.	8d	.	.	.	.
=34	=34	=34	=34	=34	=34	=34	=34	=34	=34	=34	=34	=34	=34	=34	=34
8ddd	2r	2r	8dd	8e	2r	8A	8A	2r	2r	2r	8d	2r	2r	2r	2r
8ccc	.	.	8cc	8f#	.	8D	8D	.	.	.	8c	.	.	.	.
8bb	.	.	8b	8g	.	8G	8G	.	.	.	8B	.	.	.	.
16dd	.	.	16d	8r	.	8r	8r	.	.	.	16D	.	.	.	.
16aa	.	.	16a	.	.	.	.	.	.	.	16A	.	.	.	.
=35	=35	=35	=35	=35	=35	=35	=35	=35	=35	=35	=35	=35	=35	=35	=35
4ccc	2r	2r	4cc	4a	4d	4F#	4F#	2r	2r	2r	4c	2r	2r	2r	2r
8bb	.	.	8b	8g	4r	8G	8G	.	.	.	8B	.	.	.	.
16ee	.	.	16e	8r	.	8r	8r	.	.	.	16E	.	.	.	.
16bb	.	.	16b	.	.	.	.	.	.	.	16B	.	.	.	.
=36	=36	=36	=36	=36	=36	=36	=36	=36	=36	=36	=36	=36	=36	=36	=36
4ddd	2r	2r	4dd	4b	4e	4G#	4G#	2r	2r	2r	4d	2r	2r	2r	2r
8ccc	.	.	8cc	8a	4r	8A	8A	.	.	.	8c	.	.	.	.
8eee	.	.	8ee	8r	.	8r	8r	.	.	.	8e	.	.	.	.
=37	=37	=37	=37	=37	=37	=37	=37	=37	=37	=37	=37	=37	=37	=37	=37
8ff#	2r	2r	8f#	4c	4A	4D	4D	2r	2r	2r	8F#	2r	2r	2r	2r
8ff#	.	.	8f#	.	.	.	.	.	.	.	8F#	.	.	.	.
8ff#	.	.	8f#	8r	4r	4r	4r	.	.	.	8F#	.	.	.	.
8ff#	.	.	8f#	8f#	.	.	.	.	.	.	8F#	.	.	.	.
=38	=38	=38	=38	=38	=38	=38	=38	=38	=38	=38	=38	=38	=38	=38	=38
2gg	2g	4GG	16g	16g	4G	4GG	4GG	2gg	2gg	2b	4G	4G	2cc	2e	2g
.	.	.	16a	16a	.	.	.	.	.	.	.	.	.	.	.
.	.	.	16b	16b	.	.	.	.	.	.	.	.	.	.	.
.	.	.	16cc	16cc	.	.	.	.	.	.	.	.	.	.	.
.	.	4r	16dd	16dd	4r	8r	8r	.	.	.	8r	8r	.	.	.
.	.	.	16ee	16ee	.	.	.	.	.	.	.	.	.	.	.
.	.	.	16ff#	16ff#	.	8e	8e	.	.	.	8e	8e	.	.	.
.	.	.	16gg	16gg	.	.	.	.	.	.	.	.	.	.	.
=39	=39	=39	=39	=39	=39	=39	=39	=39	=39	=39	=39	=39	=39	=39	=39
2ddd	2dd	4D	16dd	16dd	4.r	8F#	8F#	2ddd	2aa	2cc	4F#	4F#	2dd	2g	2dd
.	.	.	16ee	16ee	.	.	.	.	.	.	.	.	.	.	.
.	.	.	16ff#	16ff#	.	8F#	8F#	.	.	.	.	.	.	.	.
.	.	.	16gg	16gg	.	.	.	.	.	.	.	.	.	.	.
.	.	4r	16aa	16aa	.	8F#	8F#	.	.	.	8r	8r	.	.	.
.	.	.	16bb	16bb	.	.	.	.	.	.	.	.	.	.	.
.	.	.	16ccc	16ccc	8dd	8F#	8F#	.	.	.	8d	8d	.	.	.
.	.	.	16aa	16aa	.	.	.	.	.	.	.	.	.	.	.
=40	=40	=40	=40	=40	=40	=40	=40	=40	=40	=40	=40	=40	=40	=40	=40
2bb	4g	4GG	16bb	16bb	8g	4G	4G	2bb	2dd	[2b	8G	8G	2ee	2cc	4g
.	.	.	16ccc	16ccc	.	.	.	.	.	.	.	.	.	.	.
.	.	.	16bb	16bb	8g	.	.	.	.	.	8G	8G	.	.	.
.	.	.	16aa	16aa	.	.	.	.	.	.	.	.	.	.	.
.	4r	4r	8gg	8gg	8g	8r	8r	.	.	.	8G	8G	.	.	4r
.	.	.	16g	16g	8g	8B	8B	.	.	.	8G	8G	.	.	.
.	.	.	16a	16a	.	.	.	.	.	.	.	.	.	.	.
=41	=41	=41	=41	=41	=41	=41	=41	=41	=41	=41	=41	=41	=41	=41	=41
2ff#	2r	2r	16b	16b	4b	8D#	8D#	2ff#	2aa	2b]	4B	4B	2ee	2ee	2r
.	.	.	16cc#	16cc#	.	.	.	.	.	.	.	.	.	.	.
.	.	.	16dd#	16dd#	.	8D#	8D#	.	.	.	.	.	.	.	.
.	.	.	16ee	16ee	.	.	.	.	.	.	.	.	.	.	.
.	.	.	16ff#	16ff#	8r	8D#	8D#	.	.	.	8r	8r	.	.	.
.	.	.	16gg	16gg	.	.	.	.	.	.	.	.	.	.	.
.	.	.	16aa	16aa	8b	8D#	8D#	.	.	.	8B	8B	.	.	.
.	.	.	16ff#	16ff#	.	.	.	.	.	.	.	.	.	.	.
=42	=42	=42	=42	=42	=42	=42	=42	=42	=42	=42	=42	=42	=42	=42	=42
2gg	2r	2r	16gg	16gg	8e	4E	4E	2gg	2gg	2b	8E	8E	2ee	2ee	2r
.	.	.	16aa	16aa	.	.	.	.	.	.	.	.	.	.	.
.	.	.	16gg	16gg	8e	.	.	.	.	.	8E	8E	.	.	.
.	.	.	16ff#	16ff#	.	.	.	.	.	.	.	.	.	.	.
.	.	.	16ee	16ee	8e	8r	8r	.	.	.	8E	8E	.	.	.
.	.	.	16dd	16dd	.	.	.	.	.	.	.	.	.	.	.
.	.	.	16cc#	16cc#	8e	8G	8G	.	.	.	8E	8E	.	.	.
.	.	.	16b	16b	.	.	.	.	.	.	.	.	.	.	.
=43	=43	=43	=43	=43	=43	=43	=43	=43	=43	=43	=43	=43	=43	=43	=43
2aa	2r	2r	16a	16a	4a	8C#	8C#	2aa	2ee	2gg	4A	4A	2dd	2dd	2r
.	.	.	16b	16b	.	.	.	.	.	.	.	.	.	.	.
.	.	.	16cc#	16cc#	.	8C#	8C#	.	.	.	.	.	.	.	.
.	.	.	16dd	16dd	.	.	.	.	.	.	.	.	.	.	.
.	.	.	16ee	16ee	8r	8C#	8C#	.	.	.	8r	8r	.	.	.
.	.	.	16ff#	16ff#	.	.	.	.	.	.	.	.	.	.	.
.	.	.	16gg	16gg	8a	8C#	8C#	.	.	.	8A	8A	.	.	.
.	.	.	16ee	16ee	.	.	.	.	.	.	.	.	.	.	.
=44	=44	=44	=44	=44	=44	=44	=44	=44	=44	=44	=44	=44	=44	=44	=44
4ff#	4dd	4D	16ff#	16ff#	8d	4D	4D	4ff#	4ff#	4ff#	4D	4D	4dd	4g	4dd
.	.	.	16gg	16gg	.	.	.	.	.	.	.	.	.	.	.
.	.	.	16ff#	16ff#	16a	.	.	.	.	.	.	.	.	.	.
.	.	.	16ee	16ee	16g	.	.	.	.	.	.	.	.	.	.
8r	4r	4r	16dd	16dd	8f#	8r	8r	8r	8r	8r	8r	8r	8r	8r	4r
.	.	.	16aa	16aa	.	.	.	.	.	.	.	.	.	.	.
8dd	.	.	16ff#	16ff#	16d	16D	16D	8dd	8dd	8f#	16D	16D	8dd	8dd	.
.	.	.	16dd	16dd	16f#	16F#	16F#	.	.	.	16F#	16F#	.	.	.
=45	=45	=45	=45	=45	=45	=45	=45	=45	=45	=45	=45	=45	=45	=45	=45
4cc#	2r	2r	16cc#	16cc#	4a	4A	4A	4cc#	4cc#	4e	4A	4A	4dd	4dd	2r
.	.	.	16dd	16dd	.	.	.	.	.	.	.	.	.	.	.
.	.	.	16cc#	16cc#	.	.	.	.	.	.	.	.	.	.	.
.	.	.	16b	16b	.	.	.	.	.	.	.	.	.	.	.
8r	.	.	16a	16a	8r	8r	8r	8r	8r	8r	8r	8r	8r	8r	.
.	.	.	16ee	16ee	.	.	.	.	.	.	.	.	.	.	.
8gg	.	.	16cc#	16cc#	16A	16A	16A	8gg	8gg	16cc#	16A	16A	8dd	8dd	.
.	.	.	16g	16g	16c#	16c#	16c#	.	.	16ee	16c#	16c#	.	.	.
=46	=46	=46	=46	=46	=46	=46	=46	=46	=46	=46	=46	=46	=46	=46	=46
4ff#	4dd	4D	16f#	16f#	4d	4d	4d	4ff#	4ff#	4dd	4d	4d	4dd	4g	4dd
.	.	.	16g	16g	.	.	.	.	.	.	.	.	.	.	.
.	.	.	16f#	16f#	.	.	.	.	.	.	.	.	.	.	.
.	.	.	16e	16e	.	.	.	.	.	.	.	.	.	.	.
8r	4r	4r	16d	16d	8r	8r	8r	8r	8r	8r	8r	8r	8r	8r	4r
.	.	.	16a	16a	.	.	.	.	.	.	.	.	.	.	.
8aa	.	.	16f#	16f#	16D	16D	16D	8aa	8dd	8f#	16D	16D	8dd	8g	.
.	.	.	16d	16d	16F#	16F#	16F#	.	.	.	16F#	16F#	.	.	.
=47	=47	=47	=47	=47	=47	=47	=47	=47	=47	=47	=47	=47	=47	=47	=47
4ccc#	2r	2r	16c#	16c#	4A	4A	4A	4ccc#	4cc#	4g	4A	4A	4dd	4dd	2r
.	.	.	16d	16d	.	.	.	.	.	.	.	.	.	.	.
.	.	.	16c#	16c#	.	.	.	.	.	.	.	.	.	.	.
.	.	.	16B	16B	.	.	.	.	.	.	.	.	.	.	.
8r	.	.	16A	16A	8r	8r	8r	8r	8r	8r	8r	8r	8r	8r	.
.	.	.	16c#	16c#	.	.	.	.	.	.	.	.	.	.	.
8aa	.	.	16e	16e	8c#	8AA	8AA	8aa	8gg	8cc#	8AA	8AA	8dd	8dd	.
.	.	.	16g	16g	.	.	.	.	.	.	.	.	.	.	.
=48	=48	=48	=48	=48	=48	=48	=48	=48	=48	=48	=48	=48	=48	=48	=48
8ddd	4dd	4D	16f#	16f#	4d	4D	4D	8ddd	8ff#	8dd	8D	8D	8gg	8g	4dd
.	.	.	16a	16a	.	.	.	.	.	.	.	.	.	.	.
8r	.	.	16cc#	16cc#	.	.	.	8r	8r	8r	8r	8r	8r	8r	.
.	.	.	16dd	16dd	.	.	.	.	.	.	.	.	.	.	.
8gg	4r	4r	16a	16a	8r	8r	8r	8gg	8ccc#	8ee	8A	8A	8dd	8dd	4r
.	.	.	16cc#	16cc#	.	.	.	.	.	.	.	.	.	.	.
8r	.	.	16ee	16ee	8cc# 8e	8A	8A	8r	8r	8r	8r	8r	8r	8r	.
.	.	.	16gg	16gg	.	.	.	.	.	.	.	.	.	.	.
=49	=49	=49	=49	=49	=49	=49	=49	=49	=49	=49	=49	=49	=49	=49	=49
8ff#	4dd	4D	16ff#	16ff#	4dd 4d	4D	4D	8ff#	8ddd	8ff#	8D	8D	8gg	8g	4dd
.	.	.	16aa	16aa	.	.	.	.	.	.	.	.	.	.	.
8r	.	.	16ff#	16ff#	.	.	.	8r	8r	8r	8r	8r	8r	8r	.
.	.	.	16dd	16dd	.	.	.	.	.	.	.	.	.	.	.
8ee	4r	4r	16cc#	16cc#	8r	8r	8r	8ee	8gg	8cc#	8AA	8AA	8dd	8dd	4r
.	.	.	16ee	16ee	.	.	.	.	.	.	.	.	.	.	.
8r	.	.	16cc#	16cc#	8c#	8AA	8AA	8r	8r	8r	8r	8r	8r	8r	.
.	.	.	16g	16g	.	.	.	.	.	.	.	.	.	.	.
=50	=50	=50	=50	=50	=50	=50	=50	=50	=50	=50	=50	=50	=50	=50	=50
8ff#	4dd	4D	16f#	16f#	8d	8r	8r	8ff#	8ff#	8dd	8D	8D	8gg	8g	4dd
.	.	.	16a	16a	.	.	.	.	.	.	.	.	.	.	.
8r	.	.	16f#	16f#	8r	8D	8D	8r	8r	8r	8r	8r	8r	8r	.
.	.	.	16d	16d	.	.	.	.	.	.	.	.	.	.	.
8gg	4r	4r	16c#	16c#	8A 8g	8r	8r	8gg	8ccc#	8ee	8A	8A	8dd	8dd	4r
.	.	.	16e	16e	.	.	.	.	.	.	.	.	.	.	.
8r	.	.	16f#	16f#	8r	8A	8A	8r	8r	8r	8r	8r	8r	8r	.
.	.	.	16g	16g	.	.	.	.	.	.	.	.	.	.	.
=51	=51	=51	=51	=51	=51	=51	=51	=51	=51	=51	=51	=51	=51	=51	=51
8ff#	4dd	4D	16f#	16f#	8A 8f#	8r	8r	8ff#	8ddd	8ff#	8D	8D	8gg	8g	4dd
.	.	.	16a	16a	.	.	.	.	.	.	.	.	.	.	.
8r	.	.	16cc#	16cc#	8r	8D	8D	8r	8r	8r	8r	8r	8r	8r	.
.	.	.	16dd	16dd	.	.	.	.	.	.	.	.	.	.	.
8ee	4r	4r	16a	16a	8e 8cc#	8r	8r	8ee	8gg	8cc#	8AA	8AA	8dd	8dd	4r
.	.	.	16cc#	16cc#	.	.	.	.	.	.	.	.	.	.	.
8r	.	.	16ee	16ee	8r	8AA	8AA	8r	8r	8r	8r	8r	8r	8r	.
.	.	.	16gg	16gg	.	.	.	.	.	.	.	.	.	.	.
=52	=52	=52	=52	=52	=52	=52	=52	=52	=52	=52	=52	=52	=52	=52	=52
4dd	4dd	4D	16ff#	16ff#	4dd 4f#	4D	4D	4dd	4ff#	4dd	4D	4D	4gg	4g	4dd
.	.	.	16gg	16gg	.	.	.	.	.	.	.	.	.	.	.
.	.	.	16ff#	16ff#	.	.	.	.	.	.	.	.	.	.	.
.	.	.	16ee	16ee	.	.	.	.	.	.	.	.	.	.	.
8r	4r	4r	16ff#	16ff#	8r	8r	8r	8r	8r	8r	8r	8r	4r	4r	4r
.	.	.	16dd	16dd	.	.	.	.	.	.	.	.	.	.	.
8gg#	.	.	16bb	16bb	8dd	8d	8d	8gg#	8gg#	8ee	8d	8d	.	.	.
.	.	.	16gg#	16gg#	.	.	.	.	.	.	.	.	.	.	.
=53	=53	=53	=53	=53	=53	=53	=53	=53	=53	=53	=53	=53	=53	=53	=53
4aa	2r	2r	16aa	16aa	8cc#	8c#	8c#	4aa	4aa	4a	8c#	8c#	2r	2r	2r
.	.	.	16bb	16bb	.	.	.	.	.	.	.	.	.	.	.
.	.	.	16aa	16aa	8dd	8d	8d	.	.	.	8d	8d	.	.	.
.	.	.	16gg#	16gg#	.	.	.	.	.	.	.	.	.	.	.
8r	.	.	16aa	16aa	8cc#	8c#	8c#	8r	8r	8r	8c#	8c#	.	.	.
.	.	.	16a	16a	.	.	.	.	.	.	.	.	.	.	.
8gg	.	.	16gg	16gg	8c#	8C#	8C#	8gg	8gg	8ee	8C#	8C#	.	.	.
.	.	.	16ee	16ee	.	.	.	.	.	.	.	.	.	.	.
=54	=54	=54	=54	=54	=54	=54	=54	=54	=54	=54	=54	=54	=54	=54	=54
4ff#	2r	2r	16ff#	16ff#	8d	8D	8D	4ff#	4ff#	4ff#	8D	8D	2r	2r	2r
.	.	.	16gg	16gg	.	.	.	.	.	.	.	.	.	.	.
.	.	.	16ff#	16ff#	8c#	8C#	8C#	.	.	.	8C#	8C#	.	.	.
.	.	.	16ee	16ee	.	.	.	.	.	.	.	.	.	.	.
8r	.	.	16ff#	16ff#	8d	8D	8D	8r	8r	8r	8D	8D	.	.	.
.	.	.	16dd	16dd	.	.	.	.	.	.	.	.	.	.	.
8gg#	.	.	16bb	16bb	8dd	8d	8d	8gg#	8gg#	8ee	8d	8d	.	.	.
.	.	.	16gg#	16gg#	.	.	.	.	.	.	.	.	.	.	.
=55	=55	=55	=55	=55	=55	=55	=55	=55	=55	=55	=55	=55	=55	=55	=55
8aa	2r	2r	16aa	16aa	8cc#	8c#	8c#	8aa	8aa	4a	8c#	8c#	2r	2r	2r
.	.	.	16bb	16bb	.	.	.	.	.	.	.	.	.	.	.
8gg	.	.	16gg	16gg	8b	8B	8B	8gg	8gg	.	8B	8B	.	.	.
.	.	.	16aa	16aa	.	.	.	.	.	.	.	.	.	.	.
8ff#	.	.	16ff#	16ff#	8a	8A	8A	8ff#	8ff#	4r	8A	8A	.	.	.
.	.	.	16gg	16gg	.	.	.	.	.	.	.	.	.	.	.
8ee	.	.	16ee	16ee	8g	8G	8G	8ee	8ee	.	8G	8G	.	.	.
.	.	.	16ff#	16ff#	.	.	.	.	.	.	.	.	.	.	.
=56	=56	=56	=56	=56	=56	=56	=56	=56	=56	=56	=56	=56	=56	=56	=56
4dd	2dd	4D	16dd	16dd	4f#	4F#	4F#	4dd	2dd	2aa	4F#	4F#	2dd	2g	2dd
.	.	.	16ee	16ee	.	.	.	.	.	.	.	.	.	.	.
.	.	.	16ff#	16ff#	.	.	.	.	.	.	.	.	.	.	.
.	.	.	16gg	16gg	.	.	.	.	.	.	.	.	.	.	.
4aa	.	8D	16aa	16aa	8r	8r	8r	4aa	.	.	8r	8r	.	.	.
.	.	.	16bb	16bb	.	.	.	.	.	.	.	.	.	.	.
.	.	8D	16ccc#	16ccc#	8a 8d	8F#	8F#	.	.	.	8F#	8F#	.	.	.
.	.	.	16ddd	16ddd	.	.	.	.	.	.	.	.	.	.	.
=57	=57	=57	=57	=57	=57	=57	=57	=57	=57	=57	=57	=57	=57	=57	=57
4bb	4g	4GG	16bb	16bb	4b 4d	4G	4G	4bb	2dd	2bb	4G	4G	4ee	4cc	4dd
.	.	.	16aa	16aa	.	.	.	.	.	.	.	.	.	.	.
.	.	.	16gg	16gg	.	.	.	.	.	.	.	.	.	.	.
.	.	.	16ff#	16ff#	.	.	.	.	.	.	.	.	.	.	.
4ddd	4r	4r	16ee	16ee	8r	8r	8r	4ddd	.	.	8r	8r	4r	4r	4r
.	.	.	16dd	16dd	.	.	.	.	.	.	.	.	.	.	.
.	.	.	16cc#	16cc#	8B	8G#	8G#	.	.	.	8G#	8G#	.	.	.
.	.	.	16b	16b	.	.	.	.	.	.	.	.	.	.	.
=58	=58	=58	=58	=58	=58	=58	=58	=58	=58	=58	=58	=58	=58	=58	=58
[2aa	2r	2r	16a	4a	4A	4A	4A	[2aa	4cc#	4aa	4A	4A	8dd	8dd	2r
.	.	.	16aa	.	.	.	.	.	.	.	.	.	.	.	.
.	.	.	16a	.	.	.	.	.	.	.	.	.	8dd	8dd	.
.	.	.	16aa	.	.	.	.	.	.	.	.	.	.	.	.
.	.	.	16a	8r	8r	4r	4r	.	8r	4r	4r	4r	8dd	8dd	.
.	.	.	16aa	.	.	.	.	.	.	.	.	.	.	.	.
.	.	.	16a	16A	16A	.	.	.	16a	.	.	.	8r	8r	.
.	.	.	16aa	16d	16d	.	.	.	16dd	.	.	.	.	.	.
=59	=59	=59	=59	=59	=59	=59	=59	=59	=59	=59	=59	=59	=59	=59	=59
2aa_	2r	2r	16a	4f#	4f#	2r	2r	2aa_	4ff#	2r	2r	2r	2r	2r	2r
.	.	.	16aa	.	.	.	.	.	.	.	.	.	.	.	.
.	.	.	16a	.	.	.	.	.	.	.	.	.	.	.	.
.	.	.	16aa	.	.	.	.	.	.	.	.	.	.	.	.
.	.	.	16a	8g	8g	.	.	.	8gg	.	.	.	.	.	.
.	.	.	16aa	.	.	.	.	.	.	.	.	.	.	.	.
.	.	.	16a	8e	8e	.	.	.	8ee	.	.	.	.	.	.
.	.	.	16aa	.	.	.	.	.	.	.	.	.	.	.	.
=60	=60	=60	=60	=60	=60	=60	=60	=60	=60	=60	=60	=60	=60	=60	=60
2aa_	2r	2r	16a	8c#	8c#	4.r	4.r	2aa_	8cc#	4.r	4.r	4.r	8dd	8dd	2r
.	.	.	16aa	.	.	.	.	.	.	.	.	.	.	.	.
.	.	.	16a	8c#	8c#	.	.	.	8cc#	.	.	.	8dd	8dd	.
.	.	.	16aa	.	.	.	.	.	.	.	.	.	.	.	.
.	.	.	16a	8c#	8c#	.	.	.	8cc#	.	.	.	8dd	8dd	.
.	.	.	16aa	.	.	.	.	.	.	.	.	.	.	.	.
.	.	.	16a	16A	16A	16AA	16AA	.	16a	16a	16AA	16AA	8r	8r	.
.	.	.	16aa	16f#	16d	16D	16D	.	16ff#	16ff#	16D	16D	.	.	.
=61	=61	=61	=61	=61	=61	=61	=61	=61	=61	=61	=61	=61	=61	=61	=61
2aa_	2r	2r	16a	4a	4f#	4F#	4F#	2aa_	4aa	4aa	4F#	4F#	2r	2r	2r
.	.	.	16aa	.	.	.	.	.	.	.	.	.	.	.	.
.	.	.	16a	.	.	.	.	.	.	.	.	.	.	.	.
.	.	.	16aa	.	.	.	.	.	.	.	.	.	.	.	.
.	.	.	16a	8b	8g	8G	8G	.	8bb	8bb	8G	8G	.	.	.
.	.	.	16aa	.	.	.	.	.	.	.	.	.	.	.	.
.	.	.	16a	8g	8e	8E	8E	.	8gg	8gg	8E	8E	.	.	.
.	.	.	16aa	.	.	.	.	.	.	.	.	.	.	.	.
=62	=62	=62	=62	=62	=62	=62	=62	=62	=62	=62	=62	=62	=62	=62	=62
4.aa]	2r	2r	16a	8e	8c#	8C#	8C#	4.aa]	8ee	8ee	8C#	8C#	8dd	8dd	2r
.	.	.	16aa	.	.	.	.	.	.	.	.	.	.	.	.
.	.	.	16a	8e	8c#	8C#	8C#	.	8ee	8ee	8C#	8C#	8dd	8dd	.
.	.	.	16aa	.	.	.	.	.	.	.	.	.	.	.	.
.	.	.	8a	8e	8c#	8C#	8C#	.	8ee	8ee	8C#	8C#	8dd	8dd	.
8ccc#	.	.	16aa	8r	8r	8G	8G	8ccc#	8r	8r	8r	8r	8r	8r	.
.	.	.	16ccc#	.	.	.	.	.	.	.	.	.	.	.	.
=63	=63	=63	=63	=63	=63	=63	=63	=63	=63	=63	=63	=63	=63	=63	=63
4ddd	2dd	4D	4ddd	2a 2d	2F#	8F#	8F#	4ddd	2aa	[2dd	2F#	2F#	2dd	2g	2dd
.	.	.	.	.	.	8F#	8F#	.	.	.	.	.	.	.	.
8eee	.	8D	8eee	.	.	8F#	8F#	8eee	.	.	.	.	.	.	.
8ccc	.	8D	8ccc	.	.	8F#	8F#	8ccc	.	.	.	.	.	.	.
=64	=64	=64	=64	=64	=64	=64	=64	=64	=64	=64	=64	=64	=64	=64	=64
8bb	4g	4GG	16bb	16d	16G	8G	8G	8bb	8bb	2dd_	8G	8G	4ee	4cc	4dd
.	.	.	16bb	16d	16G	.	.	.	.	.	.	.	.	.	.
8aa#	.	.	16aa#	16d	16F#	8F#	8F#	8aa#	8aa#	.	8F#	8F#	.	.	.
.	.	.	16aa#	16d	16F#	.	.	.	.	.	.	.	.	.	.
8bb	4r	4r	16bb	16d	16G	8G	8G	8bb	8bb	.	8G	8G	4r	4r	4r
.	.	.	16bb	16d	16G	.	.	.	.	.	.	.	.	.	.
8aa	.	.	16aa	16d	16A	8A	8A	8aa	8aa	.	8A	8A	.	.	.
.	.	.	16aa	16d	16A	.	.	.	.	.	.	.	.	.	.
=65	=65	=65	=65	=65	=65	=65	=65	=65	=65	=65	=65	=65	=65	=65	=65
4gg#	2r	2r	16gg#	16d	16B	8B	8B	4gg#	4gg#	2dd_	4B	4B	2r	2r	2r
.	.	.	16gg#	16d	16B	.	.	.	.	.	.	.	.	.	.
.	.	.	16gg#	16d	16B	8B	8B	.	.	.	.	.	.	.	.
.	.	.	16gg#	16d	16B	.	.	.	.	.	.	.	.	.	.
4gg	.	.	16gg	16d	16B-	8B-	8B-	4gg	4gg	.	4B-	4B-	.	.	.
.	.	.	16gg	16d	16B-	.	.	.	.	.	.	.	.	.	.
.	.	.	16gg	16d	16B-	8B-	8B-	.	.	.	.	.	.	.	.
.	.	.	16gg	16d	16B-	.	.	.	.	.	.	.	.	.	.
=66	=66	=66	=66	=66	=66	=66	=66	=66	=66	=66	=66	=66	=66	=66	=66
4ff#	2r	2r	16ff#	16d	16A	8A	8A	4ff#	4ff#	4dd]	2A	2A	2r	2r	2r
.	.	.	16ff#	16d	16A	.	.	.	.	.	.	.	.	.	.
.	.	.	16ff#	16d	16A	8A	8A	.	.	.	.	.	.	.	.
.	.	.	16ff#	16d	16A	.	.	.	.	.	.	.	.	.	.
4ff	.	.	16ff	16c	16A	8A	8A	4ff	4ff	4cc	.	.	.	.	.
.	.	.	16ff	16c	16A	.	.	.	.	.	.	.	.	.	.
.	.	.	16ff	16c	16A	8A	8A	.	.	.	.	.	.	.	.
.	.	.	16ff	16c	16A	.	.	.	.	.	.	.	.	.	.
=67	=67	=67	=67	=67	=67	=67	=67	=67	=67	=67	=67	=67	=67	=67	=67
4ee	2r	2r	16ee	16B	16G#	8G#	8G#	4ee	8ee	8b	8G#	8G#	2r	2r	2r
.	.	.	16ee	16B	16G#	.	.	.	.	.	.	.	.	.	.
.	.	.	16cc#	16c#	16e	8G	8G	.	8cc#	8cc#	8G	8G	.	.	.
.	.	.	16cc#	16c#	16e	.	.	.	.	.	.	.	.	.	.
8r	.	.	16dd	16d	16d	8F#	8F#	8r	8dd	8dd	8F#	8F#	.	.	.
.	.	.	16dd	16d	16d	.	.	.	.	.	.	.	.	.	.
8eee	.	.	16b	16g	16d	8G	8G	8eee	8dd	8bb	8G	8G	.	.	.
.	.	.	16b	16g	16d	.	.	.	.	.	.	.	.	.	.
=68	=68	=68	=68	=68	=68	=68	=68	=68	=68	=68	=68	=68	=68	=68	=68
2ddd	2r	2r	16a	8f#	16d	4A	4A	2ddd	2ff#	2aa	4A	4A	2r	2r	2r
.	.	.	16dd	.	16d	.	.	.	.	.	.	.	.	.	.
.	.	.	16ff#	4f# 4A	16d	.	.	.	.	.	.	.	.	.	.
.	.	.	16aa	.	16d	.	.	.	.	.	.	.	.	.	.
.	.	.	16gg	.	16d	4r	4r	.	.	.	4r	4r	.	.	.
.	.	.	16ff#	.	16d	.	.	.	.	.	.	.	.	.	.
.	.	.	16ee	8f# 8A	16d	.	.	.	.	.	.	.	.	.	.
.	.	.	16dd	.	16d	.	.	.	.	.	.	.	.	.	.
=69	=69	=69	=69	=69	=69	=69	=69	=69	=69	=69	=69	=69	=69	=69	=69
2ccc#	2r	2r	16cc#	8g 8A	16e	4AA	4AA	2ccc#	2ee	2gg	4AA	4AA	2r	2r	2r
.	.	.	16b	.	16e	.	.	.	.	.	.	.	.	.	.
.	.	.	16a	4g 4A	16e	.	.	.	.	.	.	.	.	.	.
.	.	.	16g	.	16e	.	.	.	.	.	.	.	.	.	.
.	.	.	16f#	.	16e	4r	4r	.	.	.	4r	4r	.	.	.
.	.	.	16e	.	16e	.	.	.	.	.	.	.	.	.	.
.	.	.	16d	8A 8g	16e	.	.	.	.	.	.	.	.	.	.
.	.	.	16c#	.	16e	.	.	.	.	.	.	.	.	.	.
=70	=70	=70	=70	=70	=70	=70	=70	=70	=70	=70	=70	=70	=70	=70	=70
[2ddd	4dd	4D	16d	8f#	16d	8BB	8BB	[2ddd	8dd	8ff#	8BB	8BB	[2g	[2g	4dd
.	.	.	16d	.	16d	.	.	.	.	.	.	.	.	.	.
.	.	.	16g	4d	16B	8B	8B	.	8gg	4dd	8B	8B	.	.	.
.	.	.	16g	.	16B	.	.	.	.	.	.	.	.	.	.
.	4r	4r	16f#	.	16A	8A	8A	.	8ff#	.	8A	8A	.	.	4r
.	.	.	16f#	.	16A	.	.	.	.	.	.	.	.	.	.
.	.	.	16b	[8d	16G	8G	8G	.	8bb	[8dd	8G	8G	.	.	.
.	.	.	16b	.	16G	.	.	.	.	.	.	.	.	.	.
=71	=71	=71	=71	=71	=71	=71	=71	=71	=71	=71	=71	=71	=71	=71	=71
8ddd]	4dd	4D	16a	8d]	16F#	8F#	8F#	8ddd]	8aa	8dd]	8F#	8F#	2g_	2g_	4dd
.	.	.	16a	.	16F#	.	.	.	.	.	.	.	.	.	.
8ddd	.	.	16dd	8a	16f#	8f#	8f#	8ddd	8dd	8a	8f#	8f#	.	.	.
.	.	.	16dd	.	16f#	.	.	.	.	.	.	.	.	.	.
8ccc#	4r	4r	16cc#	8g	16e	8e	8e	8ccc#	8cc#	8g	8e	8e	.	.	4r
.	.	.	16cc#	.	16e	.	.	.	.	.	.	.	.	.	.
8eee	.	.	16gg	8cc#	16e	8A	8A	8eee	8gg	8cc#	8A	8A	.	.	.
.	.	.	16gg	.	16e	.	.	.	.	.	.	.	.	.	.
=72	=72	=72	=72	=72	=72	=72	=72	=72	=72	=72	=72	=72	=72	=72	=72
8ddd	4dd	4D	8ff#	8dd	8d	8d	8d	8ddd	8ff#	8dd	8d	8d	8g]	8g]	4dd
8r	.	.	8r	8r	8r	8r	8r	8r	8r	8r	8r	8r	8r	8r	.
8bb	4r	4r	8bb	8gg	8G	8G	8G	8bb	8bb	8gg	8G	8G	8cc	8cc	4r
8r	.	.	8r	8r	8r	8r	8r	8r	8r	8r	8r	8r	8r	8r	.
=73	=73	=73	=73	=73	=73	=73	=73	=73	=73	=73	=73	=73	=73	=73	=73
8aa	2r	2r	8aa	8ff# 8dd	8A	8A	8A	8aa	8aa	8ff#	8A	8A	8dd	8dd	2r
8r	.	.	8r	8r	8r	8r	8r	8r	8r	8r	8r	8r	8r	8r	.
8ccc#	.	.	8cc# 8e	8cc# 8ee	8A	8AA	8AA	8ccc#	8cc#	8ee	8AA	8AA	8dd	8dd	.
8r	.	.	8r	8r	8r	8r	8r	8r	8r	8r	8r	8r	8r	8r	.
=74	=74	=74	=74	=74	=74	=74	=74	=74	=74	=74	=74	=74	=74	=74	=74
2r	2r	2r	2r	2r	2r	2r	2r	2r	2r	2r	2r	2r	2r	2r	2r
=75	=75	=75	=75	=75	=75	=75	=75	=75	=75	=75	=75	=75	=75	=75	=75
2r	2r	2r	4.r	8r	2r	4D	4D	2r	2r	2r	2r	2r	2r	2r	2r
.	.	.	.	16A	.	.	.	.	.	.	.	.	.	.	.
.	.	.	.	16d	.	.	.	.	.	.	.	.	.	.	.
.	.	.	.	8f#	.	4r	4r	.	.	.	.	.	.	.	.
.	.	.	8dd	8f#	.	.	.	.	.	.	.	.	.	.	.
=76	=76	=76	=76	=76	=76	=76	=76	=76	=76	=76	=76	=76	=76	=76	=76
2r	2r	2r	8cc#	8r	2r	4D	4D	2r	2r	2r	2r	2r	2r	2r	2r
.	.	.	8a	16c#	.	.	.	.	.	.	.	.	.	.	.
.	.	.	.	16e	.	.	.	.	.	.	.	.	.	.	.
.	.	.	8g	8g	.	4r	4r	.	.	.	.	.	.	.	.
.	.	.	8e	8g	.	.	.	.	.	.	.	.	.	.	.
=77	=77	=77	=77	=77	=77	=77	=77	=77	=77	=77	=77	=77	=77	=77	=77
2r	2r	2r	4.d	8r	2r	4D	4D	2r	2r	2r	2r	2r	2r	2r	2r
.	.	.	.	16A	.	.	.	.	.	.	.	.	.	.	.
.	.	.	.	16d	.	.	.	.	.	.	.	.	.	.	.
.	.	.	.	8f#	.	4r	4r	.	.	.	.	.	.	.	.
.	.	.	8dd	8f#	.	.	.	.	.	.	.	.	.	.	.
=78	=78	=78	=78	=78	=78	=78	=78	=78	=78	=78	=78	=78	=78	=78	=78
2r	2r	2r	8cc#	8r	2r	4D	4D	2r	2r	2r	2r	2r	2r	2r	2r
.	.	.	8aa	16c#	.	.	.	.	.	.	.	.	.	.	.
.	.	.	.	16e	.	.	.	.	.	.	.	.	.	.	.
.	.	.	8aa	8g	.	4r	4r	.	.	.	.	.	.	.	.
.	.	.	8aa	8g	.	.	.	.	.	.	.	.	.	.	.
=79	=79	=79	=79	=79	=79	=79	=79	=79	=79	=79	=79	=79	=79	=79	=79
2r	2r	2r	8.aa	8r	2r	4D	4D	2r	4.r	2r	[2A	[2D	2r	2r	2r
.	.	.	.	16A	.	.	.	.	.	.	.	.	.	.	.
.	.	.	16ff#	16d	.	.	.	.	.	.	.	.	.	.	.
.	.	.	8dd	8f#	.	4r	4r	.	.	.	.	.	.	.	.
.	.	.	8dd	8f#	.	.	.	.	8dd	.	.	.	.	.	.
=80	=80	=80	=80	=80	=80	=80	=80	=80	=80	=80	=80	=80	=80	=80	=80
2r	2r	2r	8cc#	8r	8r	8r	4D	2r	8cc#	2r	2A_	2D_	2r	2r	2r
.	.	.	8a	16c#	8A	8c#	.	.	8a	.	.	.	.	.	.
.	.	.	.	16e	.	.	.	.	.	.	.	.	.	.	.
.	.	.	8g	8g	8A	8c#	4r	.	8g	.	.	.	.	.	.
.	.	.	8e	8g	8A	8c#	.	.	8e	.	.	.	.	.	.
=81	=81	=81	=81	=81	=81	=81	=81	=81	=81	=81	=81	=81	=81	=81	=81
2r	2r	2r	4.d	8r	8r	8r	4D	2r	4.d	2r	2A_	2D_	2r	2r	2r
.	.	.	.	16A	8A	8d	.	.	.	.	.	.	.	.	.
.	.	.	.	16d	.	.	.	.	.	.	.	.	.	.	.
.	.	.	.	8f#	8A	8d	4r	.	.	.	.	.	.	.	.
.	.	.	8dd	8f#	8A	8d	.	.	8dd	.	.	.	.	.	.
=82	=82	=82	=82	=82	=82	=82	=82	=82	=82	=82	=82	=82	=82	=82	=82
2r	2r	2r	8cc#	8r	8r	8r	4D	2r	8cc#	2r	2A_	2D_	2r	2r	2r
.	.	.	8aa	16c#	8e 8c#	8c#	.	.	8aa	.	.	.	.	.	.
.	.	.	.	16e	.	.	.	.	.	.	.	.	.	.	.
.	.	.	8aa	8g	8e 8c#	8c#	4r	.	8aa	.	.	.	.	.	.
.	.	.	8aa	8g	8e 8c#	8c#	.	.	8aa	.	.	.	.	.	.
=83	=83	=83	=83	=83	=83	=83	=83	=83	=83	=83	=83	=83	=83	=83	=83
4.r	2r	2r	8.aa	8r	8r	8r	4D	2r	8.aa	2r	2A_	2D_	2r	2r	2r
.	.	.	.	16A	8d	8d	.	.	.	.	.	.	.	.	.
.	.	.	16ff#	16d	.	.	.	.	16ff#	.	.	.	.	.	.
.	.	.	8dd	8f#	8d	8d	4r	.	8dd	.	.	.	.	.	.
8ddd	.	.	8dd	8f#	8d	8d	.	.	8r	.	.	.	.	.	.
=84	=84	=84	=84	=84	=84	=84	=84	=84	=84	=84	=84	=84	=84	=84	=84
8ccc	2r	2r	8cc	8r	8r	8r	4F#	2r	2r	2r	2A]	2D]	2r	2r	2r
8aa	.	.	8a	16d	8f#	8F#	.	.	.	.	.	.	.	.	.
.	.	.	.	16f#	.	.	.	.	.	.	.	.	.	.	.
8ff#	.	.	8f#	8a	8f#	8F#	4r	.	.	.	.	.	.	.	.
8cc	.	.	8c	8a	8f#	8F#	.	.	.	.	.	.	.	.	.
=85	=85	=85	=85	=85	=85	=85	=85	=85	=85	=85	=85	=85	=85	=85	=85
4.b	2r	2r	4.B	8r	8r	8r	4G	2r	4.r	2r	4B	4G	2r	2r	2r
.	.	.	.	16d	8g	8G	.	.	.	.	.	.	.	.	.
.	.	.	.	16g	.	.	.	.	.	.	.	.	.	.	.
.	.	.	.	8b	8g	8G	4r	.	.	.	4r	4r	.	.	.
8bb	.	.	8b	8g	8g	8G	.	.	8gg	.	.	.	.	.	.
=86	=86	=86	=86	=86	=86	=86	=86	=86	=86	=86	=86	=86	=86	=86	=86
8aa	2r	2r	8a	8f#	4a	8r	4A	2r	8ff#	2r	2r	2r	2r	2r	2r
8ff#	.	.	8f#	8d	.	8A	.	.	8dd	.	.	.	.	.	.
8gg	.	.	8g	8e	4A	8A	4r	.	8ee	.	.	.	.	.	.
8ee	.	.	8e	8c#	.	8A	.	.	8cc#	.	.	.	.	.	.
=87	=87	=87	=87	=87	=87	=87	=87	=87	=87	=87	=87	=87	=87	=87	=87
4dd	4dd	4D	16d	4d	4d	4D	4D	4dd	4dd	4f#	4D	4D	4dd	4g	4dd
.	.	.	16f#	.	.	.	.	.	.	.	.	.	.	.	.
.	.	.	16a	.	.	.	.	.	.	.	.	.	.	.	.
.	.	.	16dd	.	.	.	.	.	.	.	.	.	.	.	.
4r	4r	4r	16cc#	4r	4r	4r	4r	4r	4r	4r	4r	4r	4r	4r	4r
.	.	.	16b	.	.	.	.	.	.	.	.	.	.	.	.
.	.	.	16a	.	.	.	.	.	.	.	.	.	.	.	.
.	.	.	16g	.	.	.	.	.	.	.	.	.	.	.	.
=88	=88	=88	=88	=88	=88	=88	=88	=88	=88	=88	=88	=88	=88	=88	=88
4ddd	4dd	4D	16f#	16d	4A 4d 4D	4D	4D	4ddd	4ff#	4dd	4D	4D	4dd	4g	4dd
.	.	.	16a	16f#	.	.	.	.	.	.	.	.	.	.	.
.	.	.	16dd	16a	.	.	.	.	.	.	.	.	.	.	.
.	.	.	16ff#	16dd	.	.	.	.	.	.	.	.	.	.	.
4r	4r	4r	16ee	16cc#	4r	4r	4r	4r	4r	4r	4r	4r	4r	4r	4r
.	.	.	16dd	16b	.	.	.	.	.	.	.	.	.	.	.
.	.	.	16cc#	16a	.	.	.	.	.	.	.	.	.	.	.
.	.	.	16b	16g	.	.	.	.	.	.	.	.	.	.	.
=89	=89	=89	=89	=89	=89	=89	=89	=89	=89	=89	=89	=89	=89	=89	=89
4ddd	4dd	4D	16a	16f#	4A 4D 4d	4D	4D	4ddd	4aa	4ff#	4D	4D	4dd	4g	4dd
.	.	.	16dd	16a	.	.	.	.	.	.	.	.	.	.	.
.	.	.	16ff#	16dd	.	.	.	.	.	.	.	.	.	.	.
.	.	.	16aa	16ff#	.	.	.	.	.	.	.	.	.	.	.
4r	4r	4r	16gg	16ee	4r	4r	4r	4r	4r	4r	4r	4r	4r	4r	4r
.	.	.	16ff#	16dd	.	.	.	.	.	.	.	.	.	.	.
.	.	.	16ee	16cc#	.	.	.	.	.	.	.	.	.	.	.
.	.	.	16dd	16b	.	.	.	.	.	.	.	.	.	.	.
=90	=90	=90	=90	=90	=90	=90	=90	=90	=90	=90	=90	=90	=90	=90	=90
2r	2r	2r	16cc#	16a	2r	2r	2r	2r	2r	2r	2r	2r	2r	2r	2r
.	.	.	16b	16g	.	.	.	.	.	.	.	.	.	.	.
.	.	.	16a	16f#	.	.	.	.	.	.	.	.	.	.	.
.	.	.	16g	16e	.	.	.	.	.	.	.	.	.	.	.
.	.	.	16f#	16d	.	.	.	.	.	.	.	.	.	.	.
.	.	.	16e	16c#	.	.	.	.	.	.	.	.	.	.	.
.	.	.	16d	16B	.	.	.	.	.	.	.	.	.	.	.
.	.	.	16c#	16A	.	.	.	.	.	.	.	.	.	.	.
=91	=91	=91	=91	=91	=91	=91	=91	=91	=91	=91	=91	=91	=91	=91	=91
[2ddd	2dd	4GG	16B	16G	8g	8G	8G	[2ddd	[2bb	[2dd	2G	2G	2r	2r	2dd
.	.	.	16B	16G	.	.	.	.	.	.	.	.	.	.	.
.	.	.	16g	16B	8g	8G	8G	.	.	.	.	.	.	.	.
.	.	.	16g	16B	.	.	.	.	.	.	.	.	.	.	.
.	.	8GG	16b	16d	8g	8G	8G	.	.	.	.	.	.	.	.
.	.	.	16b	16d	.	.	.	.	.	.	.	.	.	.	.
.	.	8GG	16dd	16b	8g	8G	8G	.	.	.	.	.	.	.	.
.	.	.	16dd	16b	.	.	.	.	.	.	.	.	.	.	.
=92	=92	=92	=92	=92	=92	=92	=92	=92	=92	=92	=92	=92	=92	=92	=92
4ddd]	2dd	4GG	16gg	16dd	8g	8G	8G	4ddd]	2bb]	2dd]	2G	2G	2r	2r	2dd
.	.	.	16gg	16dd	.	.	.	.	.	.	.	.	.	.	.
.	.	.	16bb	16gg	8g	8G	8G	.	.	.	.	.	.	.	.
.	.	.	16bb	16gg	.	.	.	.	.	.	.	.	.	.	.
4bb	.	4r	16ddd	16bb	8g	8G	8G	4bb	.	.	.	.	.	.	.
.	.	.	16ddd	16bb	.	.	.	.	.	.	.	.	.	.	.
.	.	.	16bb	16gg	8g	8G	8G	.	.	.	.	.	.	.	.
.	.	.	16bb	16gg	.	.	.	.	.	.	.	.	.	.	.
=93	=93	=93	=93	=93	=93	=93	=93	=93	=93	=93	=93	=93	=93	=93	=93
8aa	4dd	2r	16aa	16ff#	8a	8A	8A	8aa	8aa	8ff#	2A	2A	2r	2r	4dd
.	.	.	16aa	16ff#	.	.	.	.	.	.	.	.	.	.	.
8ff#	.	.	16ff#	16dd	8a	8A	8A	8ff#	8ff#	8dd	.	.	.	.	.
.	.	.	16ff#	16dd	.	.	.	.	.	.	.	.	.	.	.
8aa	4r	.	16aa	16ff#	8a	8A	8A	8aa	8aa	8ff#	.	.	.	.	4r
.	.	.	16aa	16ff#	.	.	.	.	.	.	.	.	.	.	.
8ff#	.	.	16ff#	16dd	8a	8A	8A	8ff#	8ff#	8dd	.	.	.	.	.
.	.	.	16ff#	16dd	.	.	.	.	.	.	.	.	.	.	.
=94	=94	=94	=94	=94	=94	=94	=94	=94	=94	=94	=94	=94	=94	=94	=94
8gg	2r	2r	16gg	16ee	8a	8A	8A	8gg	8gg	8ee	2AA	2AA	2r	2r	2r
.	.	.	16gg	16ee	.	.	.	.	.	.	.	.	.	.	.
8ee	.	.	16ee	16cc#	8a	8A	8A	8ee	8ee	8cc#	.	.	.	.	.
.	.	.	16ee	16cc#	.	.	.	.	.	.	.	.	.	.	.
8gg	.	.	16gg	16ee	8a	8A	8A	8gg	8gg	8ee	.	.	.	.	.
.	.	.	16gg	16ee	.	.	.	.	.	.	.	.	.	.	.
8ee	.	.	16ee	16cc#	8a	8A	8A	8ee	8ee	8cc#	.	.	.	.	.
.	.	.	16ee	16cc#	.	.	.	.	.	.	.	.	.	.	.
=95	=95	=95	=95	=95	=95	=95	=95	=95	=95	=95	=95	=95	=95	=95	=95
4ff#	4dd	4D	16ff#	4dd	4d	4D	4D	4ff#	4ff#	4dd	4D	4D	2r	2r	4dd
.	.	.	16aa	.	.	.	.	.	.	.	.	.	.	.	.
.	.	.	16ddd	.	.	.	.	.	.	.	.	.	.	.	.
.	.	.	16aa	.	.	.	.	.	.	.	.	.	.	.	.
8r	4r	4r	16ff#	8r	8r	8r	8r	8r	8r	8r	8r	8r	.	.	4r
.	.	.	16aa	.	.	.	.	.	.	.	.	.	.	.	.
8ccc#	.	.	16gg	8cc# 8e	8e	8A	8A	8ccc#	8gg	8ee	8A	8A	.	.	.
.	.	.	16aa	.	.	.	.	.	.	.	.	.	.	.	.
=96	=96	=96	=96	=96	=96	=96	=96	=96	=96	=96	=96	=96	=96	=96	=96
4ddd	4dd	4D	16ff#	4d 4dd	4d	4D	4D	4ddd	4ff#	4dd	4D	4D	2r	2r	4dd
.	.	.	16aa	.	.	.	.	.	.	.	.	.	.	.	.
.	.	.	16ddd	.	.	.	.	.	.	.	.	.	.	.	.
.	.	.	16aa	.	.	.	.	.	.	.	.	.	.	.	.
8r	4r	4r	16ff#	8r	8r	8r	8r	8r	8r	8r	8r	8r	.	.	4r
.	.	.	16aa	.	.	.	.	.	.	.	.	.	.	.	.
8ccc#	.	.	16gg	8cc# 8e	8e	8A	8A	8ccc#	8gg	8ee	8A	8A	.	.	.
.	.	.	16aa	.	.	.	.	.	.	.	.	.	.	.	.
=97	=97	=97	=97	=97	=97	=97	=97	=97	=97	=97	=97	=97	=97	=97	=97
8ddd	4dd	4D	16ff#	8dd 8d	8d	8D	8D	8ddd	8ff#	8dd	8D	8D	2r	2r	4dd
.	.	.	16aa	.	.	.	.	.	.	.	.	.	.	.	.
8ccc#	.	.	16gg	8cc# 8e	8e	8A	8A	8ccc#	8gg	8ee	8A	8A	.	.	.
.	.	.	16aa	.	.	.	.	.	.	.	.	.	.	.	.
8ddd	4r	4r	16ff#	8f# 8dd	8d	8D	8D	8ddd	8ff#	8dd	8D	8D	.	.	4r
.	.	.	16aa	.	.	.	.	.	.	.	.	.	.	.	.
8ccc#	.	.	16gg	8e 8cc#	8e	8A	8A	8ccc#	8gg	8ee	8A	8A	.	.	.
.	.	.	16aa	.	.	.	.	.	.	.	.	.	.	.	.
=98	=98	=98	=98	=98	=98	=98	=98	=98	=98	=98	=98	=98	=98	=98	=98
4ddd	4dd	4D	4ff#	4d 4dd	4d	4D	4D	4ddd	4ff#	4dd	4D	4D	2r	2r	4dd
4ddd	4dd	4D	4ddd 4d 4ff#	4ff# 4a 4d	4d	4D	4D	4ddd	4ff#	4a	4D	4D	.	.	4dd
=99	=99	=99	=99	=99	=99	=99	=99	=99	=99	=99	=99	=99	=99	=99	=99
4ddd	4dd	4D	4ddd 4ff# 4d	4ff# 4a 4d	4d	4D	4D	4ddd	4ff#	4d	4D	4D	2r	2r	4dd
4r	4r	4r	4r	4r	4r	4r	4r	4r	4r	4r	4r	4r	.	.	4r
=100	=100	=100	=100	=100	=100	=100	=100	=100	=100	=100	=100	=100	=100	=100	=100
2r	2r	2r	4c	4c	4c	4C	4C	2r	2r	2r	2r	2r	2r	2r	2r
.	.	.	4c	4c	4c	4C	4C	.	.	.	.	.	.	.	.
=101	=101	=101	=101	=101	=101	=101	=101	=101	=101	=101	=101	=101	=101	=101	=101
2r	2r	2r	4c	4c	4c	4C	4C	2r	2r	2r	2r	2r	2r	2r	2r
.	.	.	8r	4r	4r	4r	4r	.	.	.	.	.	.	.	.
.	.	.	16A	.	.	.	.	.	.	.	.	.	.	.	.
.	.	.	16B	.	.	.	.	.	.	.	.	.	.	.	.
=102	=102	=102	=102	=102	=102	=102	=102	=102	=102	=102	=102	=102	=102	=102	=102
2r	2r	2r	4c	4A	4D	4FF#	4FF#	2r	2r	2r	2r	2r	2r	2r	2r
.	.	.	4c	4A	4D	4FF#	4FF#	.	.	.	.	.	.	.	.
=103	=103	=103	=103	=103	=103	=103	=103	=103	=103	=103	=103	=103	=103	=103	=103
2r	2r	2r	4c	4A	4D	4FF#	4FF#	2r	2r	2r	4.r	2r	2r	2r	2r
.	.	.	8r	4r	4r	4r	4r	.	.	.	.	.	.	.	.
.	.	.	16d	.	.	.	.	.	.	.	16D	.	.	.	.
.	.	.	16g	.	.	.	.	.	.	.	16G	.	.	.	.
=104	=104	=104	=104	=104	=104	=104	=104	=104	=104	=104	=104	=104	=104	=104	=104
2r	2r	2r	4b	8d 8B	8d	8G	8G	2r	2r	2r	4B	2r	2r	2r	2r
.	.	.	.	8r	8r	8r	8r	.	.	.	.	.	.	.	.
.	.	.	8cc	8f# 8A	8c	8D	8D	.	.	.	8c	.	.	.	.
.	.	.	8a	8r	8r	8r	8r	.	.	.	8A	.	.	.	.
=105	=105	=105	=105	=105	=105	=105	=105	=105	=105	=105	=105	=105	=105	=105	=105
2r	2r	2r	8g	8g 8G	8B	8GG	8GG	2r	2r	2r	8G	2r	2r	2r	2r
.	.	.	8g	4.r	4.r	4r	4r	.	.	.	8G	.	.	.	.
.	.	.	8g	.	.	.	.	.	.	.	8G	.	.	.	.
.	.	.	8b	.	.	8G	8G	.	.	.	8B	.	.	.	.
=106	=106	=106	=106	=106	=106	=106	=106	=106	=106	=106	=106	=106	=106	=106	=106
2r	2r	2r	8a	2d	2r	8F#	8F#	2r	2r	2r	8A	2r	2r	2r	2r
.	.	.	8cc	.	.	8A	8A	.	.	.	8c	.	.	.	.
.	.	.	8b	.	.	8G	8G	.	.	.	8B	.	.	.	.
.	.	.	8dd	.	.	8B	8B	.	.	.	8d	.	.	.	.
=107	=107	=107	=107	=107	=107	=107	=107	=107	=107	=107	=107	=107	=107	=107	=107
2r	2r	2r	8dd	8e	2r	8A	8A	2r	2r	2r	8d	2r	2r	2r	2r
.	.	.	8cc	8f#	.	8D	8D	.	.	.	8c	.	.	.	.
.	.	.	8b	8g	.	8G	8G	.	.	.	8B	.	.	.	.
.	.	.	16d	8r	.	8r	8r	.	.	.	16D	.	.	.	.
.	.	.	16a	.	.	.	.	.	.	.	16A	.	.	.	.
=108	=108	=108	=108	=108	=108	=108	=108	=108	=108	=108	=108	=108	=108	=108	=108
2r	2r	2r	4cc	4a	4d	4F#	4F#	2r	2r	2r	4c	2r	2r	2r	2r
.	.	.	8dd	8r	8r	8r	8r	.	.	.	8d	.	.	.	.
.	.	.	8b	8g	8d	8G	8G	.	.	.	8B	.	.	.	.
=109	=109	=109	=109	=109	=109	=109	=109	=109	=109	=109	=109	=109	=109	=109	=109
2r	2r	2r	8a	4f#	4d	4D	4D	2r	2r	2r	8A	2r	2r	2r	2r
.	.	.	8a	.	.	.	.	.	.	.	8A	.	.	.	.
.	.	.	8a	8r	8r	8r	8r	.	.	.	8A	.	.	.	.
.	.	.	8ee	8f#	8a	8c	8c	.	.	.	8e	.	.	.	.
=110	=110	=110	=110	=110	=110	=110	=110	=110	=110	=110	=110	=110	=110	=110	=110
2r	2r	2r	8dd	8g	8g	8B	8B	2r	2r	2r	8d	2r	2r	2r	2r
.	.	.	8cc	8a	8e	8c	8c	.	.	.	8c	.	.	.	.
.	.	.	8b	8g	8d	8d	8d	.	.	.	8B	.	.	.	.
.	.	.	8a	8f#	8c	8D	8D	.	.	.	8A	.	.	.	.
=111	=111	=111	=111	=111	=111	=111	=111	=111	=111	=111	=111	=111	=111	=111	=111
2gg	2g	4GG	8g	8g	4B	4G	4G	2gg	2gg	2b	8G	4.r	2cc	2e	2g
.	.	.	8g	4r	.	.	.	.	.	.	8G	.	.	.	.
.	.	4r	8g	.	8r	8r	8r	.	.	.	8G	.	.	.	.
.	.	.	8r	16cc	8ee	8e	8e	.	.	.	8e	8e	.	.	.
.	.	.	.	16b	.	.	.	.	.	.	.	.	.	.	.
=112	=112	=112	=112	=112	=112	=112	=112	=112	=112	=112	=112	=112	=112	=112	=112
2ddd	2dd	4D	16dd	8a	8f#	8F#	8F#	2ddd	2aa	[2dd	8F#	8F#	2dd	2g	[2dd
.	.	.	16ee	.	.	.	.	.	.	.	.	.	.	.	.
.	.	.	16ff#	8a	8f#	8F#	8F#	.	.	.	8F#	8F#	.	.	.
.	.	.	16gg	.	.	.	.	.	.	.	.	.	.	.	.
.	.	4r	16aa	8a	8f#	8F#	8F#	.	.	.	8F#	8F#	.	.	.
.	.	.	16bb	.	.	.	.	.	.	.	.	.	.	.	.
.	.	.	16ccc	8a	8f#	8F#	8F#	.	.	.	8F#	8F#	.	.	.
.	.	.	16aa	.	.	.	.	.	.	.	.	.	.	.	.
=113	=113	=113	=113	=113	=113	=113	=113	=113	=113	=113	=113	=113	=113	=113	=113
2bb	2g	4GG	16bb	16dd	4g	4G	4G	2bb	2bb	2dd_	4G	4G	2ee	2cc	2dd_
.	.	.	16ccc	16ee	.	.	.	.	.	.	.	.	.	.	.
.	.	.	16bb	16dd	.	.	.	.	.	.	.	.	.	.	.
.	.	.	16aa	16cc	.	.	.	.	.	.	.	.	.	.	.
.	.	4r	8gg	8b	4r	4r	4r	.	.	.	4r	4r	.	.	.
.	.	.	8eee	16cc	.	.	.	.	.	.	.	.	.	.	.
.	.	.	.	16b	.	.	.	.	.	.	.	.	.	.	.
=114	=114	=114	=114	=114	=114	=114	=114	=114	=114	=114	=114	=114	=114	=114	=114
2aa	2dd	4D	8ff#	16a	16d	16D	16D	2aa	2ff#	2dd_	16D	16D	2dd	2g	2dd_
.	.	.	.	16g	16e	16E	16E	.	.	.	16E	16E	.	.	.
.	.	.	8ff#	16f#	16f#	16F#	16F#	.	.	.	16F#	16F#	.	.	.
.	.	.	.	16e	16g	16G	16G	.	.	.	16G	16G	.	.	.
.	.	4r	8ff#	8d	16a	16A	16A	.	.	.	16A	16A	.	.	.
.	.	.	.	.	16b	16B	16B	.	.	.	16B	16B	.	.	.
.	.	.	8ff#	8d	16cc	16c	16c	.	.	.	16c	16c	.	.	.
.	.	.	.	.	16a	16A	16A	.	.	.	16A	16A	.	.	.
=115	=115	=115	=115	=115	=115	=115	=115	=115	=115	=115	=115	=115	=115	=115	=115
[2bb	2g	4GG	4gg	16dd	16b	16B	16B	[2bb	2gg	2dd]	16B	16B	[2ee	2cc	2dd]
.	.	.	.	16ee	16cc	16c	16c	.	.	.	16c	16c	.	.	.
.	.	.	.	16dd	16b	16B	16B	.	.	.	16B	16B	.	.	.
.	.	.	.	16cc	16a	16A	16A	.	.	.	16A	16A	.	.	.
.	.	4r	8r	8b	8g	8G	8G	.	.	.	8G	8G	.	.	.
.	.	.	16g	8g	8b	8B	8B	.	.	.	8B	8B	.	.	.
.	.	.	16a	.	.	.	.	.	.	.	.	.	.	.	.
=116	=116	=116	=116	=116	=116	=116	=116	=116	=116	=116	=116	=116	=116	=116	=116
2bb_	2r	2r	16b	8f#	8d#	8D#	8D#	2bb_	2aa	2ff#	2D#	2D#	2ee_	2ee	2r
.	.	.	16cc#	.	.	.	.	.	.	.	.	.	.	.	.
.	.	.	16dd#	8f#	8d#	8D#	8D#	.	.	.	.	.	.	.	.
.	.	.	16ee	.	.	.	.	.	.	.	.	.	.	.	.
.	.	.	16ff#	8f#	8d#	8D#	8D#	.	.	.	.	.	.	.	.
.	.	.	16gg	.	.	.	.	.	.	.	.	.	.	.	.
.	.	.	16aa	8f#	8d#	8D#	8D#	.	.	.	.	.	.	.	.
.	.	.	16ff#	.	.	.	.	.	.	.	.	.	.	.	.
=117	=117	=117	=117	=117	=117	=117	=117	=117	=117	=117	=117	=117	=117	=117	=117
2bb_	2r	2r	16gg	16b	4e	4E	4E	2bb_	2gg	2ee	2E	2E	2ee_	[2cc	2r
.	.	.	16aa	16cc	.	.	.	.	.	.	.	.	.	.	.
.	.	.	16gg	16b	.	.	.	.	.	.	.	.	.	.	.
.	.	.	16ff#	16a	.	.	.	.	.	.	.	.	.	.	.
.	.	.	8ee	8g	8r	4r	4r	.	.	.	.	.	.	.	.
.	.	.	8gg	16B	16B	.	.	.	.	.	.	.	.	.	.
.	.	.	.	16A	16A	.	.	.	.	.	.	.	.	.	.
=118	=118	=118	=118	=118	=118	=118	=118	=118	=118	=118	=118	=118	=118	=118	=118
2bb]	2g	4GG	8b	16G	8G	2r	2r	2bb]	2ff	2dd	2G	2G	2ee]	2cc_	2dd
.	.	.	.	16A	.	.	.	.	.	.	.	.	.	.	.
.	.	.	8b	16B	8G	.	.	.	.	.	.	.	.	.	.
.	.	.	.	16c	.	.	.	.	.	.	.	.	.	.	.
.	.	4r	8b	16d	8G	.	.	.	.	.	.	.	.	.	.
.	.	.	.	16e	.	.	.	.	.	.	.	.	.	.	.
.	.	.	8gg	16f	8G	.	.	.	.	.	.	.	.	.	.
.	.	.	.	16d	.	.	.	.	.	.	.	.	.	.	.
=119	=119	=119	=119	=119	=119	=119	=119	=119	=119	=119	=119	=119	=119	=119	=119
2ccc	2cc	4GG	8cc	16e	4c	2r	2r	2ccc	2ee	2cc	4e	4e	4ff	4cc]	2ee
.	.	.	.	16f	.	.	.	.	.	.	.	.	.	.	.
.	.	.	8cc	16e	.	.	.	.	.	.	.	.	.	.	.
.	.	.	.	16d	.	.	.	.	.	.	.	.	.	.	.
.	.	4r	8cc	16c	8r	.	.	.	.	.	4c	4c	4r	4r	.
.	.	.	.	16ee	.	.	.	.	.	.	.	.	.	.	.
.	.	.	8gg	16dd	16e	.	.	.	.	.	.	.	.	.	.
.	.	.	.	16cc	16f	.	.	.	.	.	.	.	.	.	.
=120	=120	=120	=120	=120	=120	=120	=120	=120	=120	=120	=120	=120	=120	=120	=120
2ff	2g	4GG	8dd	16b	8g	4.r	4.r	2ff	2dd	2b	2g	2g	2ee	[2cc	2dd
.	.	.	.	16cc	.	.	.	.	.	.	.	.	.	.	.
.	.	.	8dd	16b	8g	.	.	.	.	.	.	.	.	.	.
.	.	.	.	16a	.	.	.	.	.	.	.	.	.	.	.
.	.	4r	8dd	16g	8g	.	.	.	.	.	.	.	.	.	.
.	.	.	.	16f	.	.	.	.	.	.	.	.	.	.	.
.	.	.	16gg	16e	8g	8BB	8BB	.	.	.	.	.	.	.	.
.	.	.	16ff	16d	.	.	.	.	.	.	.	.	.	.	.
=121	=121	=121	=121	=121	=121	=121	=121	=121	=121	=121	=121	=121	=121	=121	=121
4ee	4cc	4GG	16ee	16c	8g	8C	8C	4ee	4ee	4cc	4c	4c	4ff	4cc]	4ee
.	.	.	16ff	16d	.	.	.	.	.	.	.	.	.	.	.
.	.	.	16gg	16e	4c	4c	4c	.	.	.	.	.	.	.	.
.	.	.	16ff	16f	.	.	.	.	.	.	.	.	.	.	.
8r	4r	4r	16ee	8g	.	.	.	8r	8r	8r	8r	8r	4r	4r	4r
.	.	.	16ff	.	.	.	.	.	.	.	.	.	.	.	.
8gg#	.	.	16dd	8g#	8B-	8B-	8B-	8gg#	8dd	8gg#	8B-	8B-	.	.	.
.	.	.	16ee	.	.	.	.	.	.	.	.	.	.	.	.
=122	=122	=122	=122	=122	=122	=122	=122	=122	=122	=122	=122	=122	=122	=122	=122
4aa	2ee	2r	16cc#	8a	4A	4A	4A	4aa	4cc#	4aa	4A	4A	2r	2r	2ee
.	.	.	16dd	.	.	.	.	.	.	.	.	.	.	.	.
.	.	.	16ee	16A	.	.	.	.	.	.	.	.	.	.	.
.	.	.	16cc#	16B	.	.	.	.	.	.	.	.	.	.	.
8r	.	.	16a	8c#	8r	8r	8r	8r	8r	8r	8r	8r	.	.	.
.	.	.	16bb-	.	.	.	.	.	.	.	.	.	.	.	.
8aa	.	.	16aa	8e	8C#	8C#	8C#	8aa	8gg	8ee	8c#	8c#	.	.	.
.	.	.	16gg	.	.	.	.	.	.	.	.	.	.	.	.
=123	=123	=123	=123	=123	=123	=123	=123	=123	=123	=123	=123	=123	=123	=123	=123
4a	4dd	2r	16ff#	16d	8D	8D	8D	4a	4ff#	4ff#	4d	4d	2r	2r	4dd
.	.	.	16gg	16e	.	.	.	.	.	.	.	.	.	.	.
.	.	.	16aa	16f#	4d	4d	4d	.	.	.	.	.	.	.	.
.	.	.	16gg	16g	.	.	.	.	.	.	.	.	.	.	.
8r	4r	.	16ff#	8a	.	.	.	8r	8r	8bb-	8r	8r	.	.	4r
.	.	.	16gg	.	.	.	.	.	.	.	.	.	.	.	.
8aa#	.	.	16ee	8a#	8c	8c	8c	8aa#	8ee	8aa#	8c	8c	.	.	.
.	.	.	16ff#	.	.	.	.	.	.	.	.	.	.	.	.
=124	=124	=124	=124	=124	=124	=124	=124	=124	=124	=124	=124	=124	=124	=124	=124
4bb	2r	2r	16dd#	8b	4B	4B	4B	4bb	4dd#	4bb	4B	4B	2r	2r	2r
.	.	.	16ee	.	.	.	.	.	.	.	.	.	.	.	.
.	.	.	16ff#	16B	.	.	.	.	.	.	.	.	.	.	.
.	.	.	16dd#	16c#	.	.	.	.	.	.	.	.	.	.	.
8r	.	.	16b	8d#	8r	8r	8r	8r	8r	8r	8r	8r	.	.	.
.	.	.	16dd#	.	.	.	.	.	.	.	.	.	.	.	.
8bb	.	.	16ff#	8b	8f#	8D#	8D#	8bb	8aa	8ff#	8D#	8D#	.	.	.
.	.	.	16aa	.	.	.	.	.	.	.	.	.	.	.	.
=125	=125	=125	=125	=125	=125	=125	=125	=125	=125	=125	=125	=125	=125	=125	=125
4b	2r	2r	16gg	16g	4B	4E	4E	4b	4gg	4gg	4E	4E	2r	2r	2r
.	.	.	16aa	16a	.	.	.	.	.	.	.	.	.	.	.
.	.	.	16gg	16g	.	.	.	.	.	.	.	.	.	.	.
.	.	.	16ff#	16f#	.	.	.	.	.	.	.	.	.	.	.
8r	.	.	16ee	16e	8r	8r	8r	8r	8r	8r	8r	8r	.	.	.
.	.	.	16b	16b	.	.	.	.	.	.	.	.	.	.	.
8bb	.	.	16cc#	16cc#	8a	8A	8A	8bb	8ff#	8dd#	8A	8A	.	.	.
.	.	.	16dd#	16dd#	.	.	.	.	.	.	.	.	.	.	.
=126	=126	=126	=126	=126	=126	=126	=126	=126	=126	=126	=126	=126	=126	=126	=126
8b	2r	2r	16ee	16ee	8g	8G	8G	8b	8gg	8ee	8G	8G	2r	2r	2r
.	.	.	16b	16b	.	.	.	.	.	.	.	.	.	.	.
8bb	.	.	16cc#	16cc#	8a	8A	8A	8bb	8ff#	8dd#	8A	8A	.	.	.
.	.	.	16dd#	16dd#	.	.	.	.	.	.	.	.	.	.	.
8b	.	.	16ee	16ee	8g	8G	8G	8b	8gg	8ee	8G	8G	.	.	.
.	.	.	16b	16b	.	.	.	.	.	.	.	.	.	.	.
8bb	.	.	16cc#	16cc#	8a	8A	8A	8bb	8ff#	8dd#	8A	8A	.	.	.
.	.	.	16dd#	16dd#	.	.	.	.	.	.	.	.	.	.	.
=127	=127	=127	=127	=127	=127	=127	=127	=127	=127	=127	=127	=127	=127	=127	=127
8b	2r	2r	16ee	16ee	4g	4G	4G	8b	8gg	8ee	4G	4G	2r	2r	2r
.	.	.	16ff#	16ff#	.	.	.	.	.	.	.	.	.	.	.
4r	.	.	16gg	16gg	.	.	.	4r	4r	4r	.	.	.	.	.
.	.	.	16ff#	16ff#	.	.	.	.	.	.	.	.	.	.	.
.	.	.	16ee	16ee	8r	8r	8r	.	.	.	8r	8r	.	.	.
.	.	.	16b	16b	.	.	.	.	.	.	.	.	.	.	.
8bb	.	.	16cc#	16cc#	8a	8A	8A	8bb	8ff#	8dd#	8A	8A	.	.	.
.	.	.	16dd#	16dd#	.	.	.	.	.	.	.	.	.	.	.
=128	=128	=128	=128	=128	=128	=128	=128	=128	=128	=128	=128	=128	=128	=128	=128
8b	2r	2r	16ee	16ee	8g	8G	8G	8b	8ee	8ee	8G	8G	2r	2r	2r
.	.	.	16b	16b	.	.	.	.	.	.	.	.	.	.	.
8bb	.	.	16cc#	16cc#	8a	8A	8A	8bb	8ff#	8dd#	8A	8A	.	.	.
.	.	.	16dd#	16dd#	.	.	.	.	.	.	.	.	.	.	.
8b	.	.	16ee	16ee	8g	8G	8G	8b	8ee	8ee	8G	8G	.	.	.
.	.	.	16b	16b	.	.	.	.	.	.	.	.	.	.	.
8bb	.	.	16cc#	16cc#	8a	8A	8A	8bb	8ff#	8dd#	8A	8A	.	.	.
.	.	.	16dd#	16dd#	.	.	.	.	.	.	.	.	.	.	.
=129	=129	=129	=129	=129	=129	=129	=129	=129	=129	=129	=129	=129	=129	=129	=129
4b	2r	2r	16ee	16ee	4g	4G	4G	4b	4ee	4ee	4G	4G	2r	2r	2r
.	.	.	16ff#	16ff#	.	.	.	.	.	.	.	.	.	.	.
.	.	.	16gg	16gg	.	.	.	.	.	.	.	.	.	.	.
.	.	.	16aa	16aa	.	.	.	.	.	.	.	.	.	.	.
4r	.	.	16gg	16gg	8r	8r	8r	4r	8r	8r	8r	8r	.	.	.
.	.	.	16ff#	16ff#	.	.	.	.	.	.	.	.	.	.	.
.	.	.	16ee	16ee	16g	16G	16G	.	16ee	16ee	16G	16G	.	.	.
.	.	.	16dd	16dd	16f#	16F#	16F#	.	16dd	16dd	16F#	16F#	.	.	.
=130	=130	=130	=130	=130	=130	=130	=130	=130	=130	=130	=130	=130	=130	=130	=130
2r	2r	2r	16cc#	16cc#	4e	4E	4E	2r	4cc#	4cc#	4E	4E	2r	2r	2r
.	.	.	16dd	16dd	.	.	.	.	.	.	.	.	.	.	.
.	.	.	16ee	16ee	.	.	.	.	.	.	.	.	.	.	.
.	.	.	16ff#	16ff#	.	.	.	.	.	.	.	.	.	.	.
.	.	.	16ee	16ee	8r	8r	8r	.	8r	8r	8r	8r	.	.	.
.	.	.	16dd	16dd	.	.	.	.	.	.	.	.	.	.	.
.	.	.	16cc#	16cc#	8E	8E	8E	.	16cc#	16cc#	8E	8E	.	.	.
.	.	.	16b	16b	.	.	.	.	16b	16b	.	.	.	.	.
=131	=131	=131	=131	=131	=131	=131	=131	=131	=131	=131	=131	=131	=131	=131	=131
2r	2r	2r	16a#	16a#	16F#	8F#	8F#	2r	4a#	4a#	8F#	8F#	2r	2r	2r
.	.	.	16b	16b	16F#	.	.	.	.	.	.	.	.	.	.
.	.	.	16cc#	16cc#	16F#	8F#	8F#	.	.	.	8F#	8F#	.	.	.
.	.	.	16a#	16a#	16F#	.	.	.	.	.	.	.	.	.	.
.	.	.	8f#	8f#	16F#	8F#	8F#	.	8r	8r	8F#	8F#	.	.	.
.	.	.	.	.	16F#	.	.	.	.	.	.	.	.	.	.
.	.	.	8ff#	8A#	16F#	8r	8r	.	8ff#	8a#	8r	8r	.	.	.
.	.	.	.	.	16F#	.	.	.	.	.	.	.	.	.	.
=132	=132	=132	=132	=132	=132	=132	=132	=132	=132	=132	=132	=132	=132	=132	=132
2dd	2r	2r	8g#	16B	16F#	8F#	8F#	2dd	2gg#	2b	8F#	8F#	2r	2r	2r
.	.	.	.	16d	16F#	.	.	.	.	.	.	.	.	.	.
.	.	.	8g#	16B	16F#	8F#	8F#	.	.	.	8F#	8F#	.	.	.
.	.	.	.	16d	16F#	.	.	.	.	.	.	.	.	.	.
.	.	.	8g#	16B	16F#	8F#	8F#	.	.	.	8F#	8F#	.	.	.
.	.	.	.	16d	16F#	.	.	.	.	.	.	.	.	.	.
.	.	.	8ff#	16B	16F#	8r	8r	.	.	.	8r	8r	.	.	.
.	.	.	.	16d	16F#	.	.	.	.	.	.	.	.	.	.
=133	=133	=133	=133	=133	=133	=133	=133	=133	=133	=133	=133	=133	=133	=133	=133
2cc#	2r	2r	8a#	16c#	16F#	8F#	8F#	2cc#	2aa#	4.cc#	8F#	8F#	2r	2r	2r
.	.	.	.	16e	16F#	.	.	.	.	.	.	.	.	.	.
.	.	.	8a#	16c#	16F#	8F#	8F#	.	.	.	8F#	8F#	.	.	.
.	.	.	.	16e	16F#	.	.	.	.	.	.	.	.	.	.
.	.	.	8a#	16c#	16F#	8F#	8F#	.	.	.	8F#	8F#	.	.	.
.	.	.	.	16e	16F#	.	.	.	.	.	.	.	.	.	.
.	.	.	8ff#	16c#	16F#	8r	8r	.	.	8ee	8r	8r	.	.	.
.	.	.	.	16e	16F#	.	.	.	.	.	.	.	.	.	.
=134	=134	=134	=134	=134	=134	=134	=134	=134	=134	=134	=134	=134	=134	=134	=134
2b	2r	2r	8b	16B	16G	8G	8G	2b	2bb	2dd	[2d	[2B	2ee	2cc	2r
.	.	.	.	16d	16G	.	.	.	.	.	.	.	.	.	.
.	.	.	8b	16B	16G	8G	8G	.	.	.	.	.	.	.	.
.	.	.	.	16d	16G	.	.	.	.	.	.	.	.	.	.
.	.	.	8b	16B	16G	8G	8G	.	.	.	.	.	.	.	.
.	.	.	.	16d	16G	.	.	.	.	.	.	.	.	.	.
.	.	.	8bb	16B	16G	8r	8r	.	.	.	.	.	.	.	.
.	.	.	.	16d	16G	.	.	.	.	.	.	.	.	.	.
=135	=135	=135	=135	=135	=135	=135	=135	=135	=135	=135	=135	=135	=135	=135	=135
[2ddd	2r	2r	8e#	16B	16G	8G	8G	[2bb	2ee#	2b	2d_	2B_	[2gg	[2ee	2r
.	.	.	.	16d	16G	.	.	.	.	.	.	.	.	.	.
.	.	.	8e#	16B	16G	8G	8G	.	.	.	.	.	.	.	.
.	.	.	.	16d	16G	.	.	.	.	.	.	.	.	.	.
.	.	.	8e#	16B	8G	8G	8G	.	.	.	.	.	.	.	.
.	.	.	.	16d	.	.	.	.	.	.	.	.	.	.	.
.	.	.	8bb	16B	8g	8G	8G	.	.	.	.	.	.	.	.
.	.	.	.	16d	.	.	.	.	.	.	.	.	.	.	.
=136	=136	=136	=136	=136	=136	=136	=136	=136	=136	=136	=136	=136	=136	=136	=136
2ddd_	2r	2r	8f#	16B	8f#	8F#	8F#	2bb_	8ff#	8ff#	2d_	2B_	2gg_	2ee_	2r
.	.	.	.	16d	.	.	.	.	.	.	.	.	.	.	.
.	.	.	8bb	16B	8f#	8F#	8F#	.	8ff#	8ff#	.	.	.	.	.
.	.	.	.	16d	.	.	.	.	.	.	.	.	.	.	.
.	.	.	8g	16B	8g	8G	8G	.	8gg	8gg	.	.	.	.	.
.	.	.	.	16d	.	.	.	.	.	.	.	.	.	.	.
.	.	.	8bb	16B	8g	8G	8G	.	8gg	8gg	.	.	.	.	.
.	.	.	.	16d	.	.	.	.	.	.	.	.	.	.	.
=137	=137	=137	=137	=137	=137	=137	=137	=137	=137	=137	=137	=137	=137	=137	=137
2ddd_	2r	2r	8f#	16B	8f#	8F#	8F#	2bb_	8ff#	8ff#	2d_	2B_	2gg_	2ee_	2r
.	.	.	.	16d	.	.	.	.	.	.	.	.	.	.	.
.	.	.	8bb	16B	8f#	8F#	8F#	.	8ff#	8ff#	.	.	.	.	.
.	.	.	.	16d	.	.	.	.	.	.	.	.	.	.	.
.	.	.	8e#	16B	8e#	8E#	8E#	.	8ee#	8ee#	.	.	.	.	.
.	.	.	.	16d	.	.	.	.	.	.	.	.	.	.	.
.	.	.	8bb	16B	8e#	8E#	8E#	.	8ee#	8ee#	.	.	.	.	.
.	.	.	.	16d	.	.	.	.	.	.	.	.	.	.	.
=138	=138	=138	=138	=138	=138	=138	=138	=138	=138	=138	=138	=138	=138	=138	=138
2ddd_	2r	2r	8f#	16B	8f#	8F#	8F#	2bb_	8ff#	8ff#	2d_	2B_	2gg_	2ee_	2r
.	.	.	.	16d	.	.	.	.	.	.	.	.	.	.	.
.	.	.	16f#	16B	8f#	8F#	8F#	.	4bb	4dd	.	.	.	.	.
.	.	.	16b	16d	.	.	.	.	.	.	.	.	.	.	.
.	.	.	8dd	16B	8f#	8F#	8F#	.	.	.	.	.	.	.	.
.	.	.	.	16d	.	.	.	.	.	.	.	.	.	.	.
.	.	.	16b	16B	8f#	8F#	8F#	.	8bb	8dd	.	.	.	.	.
.	.	.	16dd	16d	.	.	.	.	.	.	.	.	.	.	.
=139	=139	=139	=139	=139	=139	=139	=139	=139	=139	=139	=139	=139	=139	=139	=139
2ddd_	2r	2r	8ff#	16B	8f#	8F#	8F#	2bb_	8bb	8dd	2d_	2B_	2gg_	2ee_	2r
.	.	.	.	16d	.	.	.	.	.	.	.	.	.	.	.
.	.	.	16dd	16B	8f#	8F#	8F#	.	4bb	4dd	.	.	.	.	.
.	.	.	16ff#	16d	.	.	.	.	.	.	.	.	.	.	.
.	.	.	8bb	16B	8f#	8F#	8F#	.	.	.	.	.	.	.	.
.	.	.	.	16d	.	.	.	.	.	.	.	.	.	.	.
.	.	.	16ff#	16B	8f#	8F#	8F#	.	8bb	8dd	.	.	.	.	.
.	.	.	16bb	16d	.	.	.	.	.	.	.	.	.	.	.
=140	=140	=140	=140	=140	=140	=140	=140	=140	=140	=140	=140	=140	=140	=140	=140
4ddd]	2r	2r	4ddd	4B	4f#	4F#	4F#	4bb]	4ddd	4bb	2d_	2B_	2gg_	2ee_	2r
4r	.	.	8r	4r	4r	4r	4r	4r	4r	4r	.	.	.	.	.
.	.	.	16b	.	.	.	.	.	.	.	.	.	.	.	.
.	.	.	16dd	.	.	.	.	.	.	.	.	.	.	.	.
=141	=141	=141	=141	=141	=141	=141	=141	=141	=141	=141	=141	=141	=141	=141	=141
4ddd	2r	2r	4ff#	4b 4d	4f#	4F#	4F#	4bb	4bb	4dd	4d]	4B]	4gg]	4ee]	2r
4r	.	.	8r	4r	4r	4r	4r	4r	4r	4r	4r	4r	4r	4r	.
.	.	.	16d	.	.	.	.	.	.	.	.	.	.	.	.
.	.	.	16f#	.	.	.	.	.	.	.	.	.	.	.	.
=142	=142	=142	=142	=142	=142	=142	=142	=142	=142	=142	=142	=142	=142	=142	=142
2r	2r	2r	8b	4d	4f#	4F#	4F#	2r	2r	2r	2r	2r	2r	2r	2r
.	.	.	8b	.	.	.	.	.	.	.	.	.	.	.	.
.	.	.	8b	4r	4r	4r	4r	.	.	.	.	.	.	.	.
.	.	.	16d	.	.	.	.	.	.	.	.	.	.	.	.
.	.	.	16f#	.	.	.	.	.	.	.	.	.	.	.	.
=143	=143	=143	=143	=143	=143	=143	=143	=143	=143	=143	=143	=143	=143	=143	=143
2r	2r	2r	8b	2r	2r	2r	2r	2r	2r	2r	2r	2r	2r	2r	2r
.	.	.	8b	.	.	.	.	.	.	.	.	.	.	.	.
.	.	.	8b	.	.	.	.	.	.	.	.	.	.	.	.
.	.	.	16d	.	.	.	.	.	.	.	.	.	.	.	.
.	.	.	16f#	.	.	.	.	.	.	.	.	.	.	.	.
=144	=144	=144	=144	=144	=144	=144	=144	=144	=144	=144	=144	=144	=144	=144	=144
2r	2r	2r	8b	2r	2r	2r	2r	2r	2r	2r	2r	2r	2r	2r	2r
.	.	.	4r	.	.	.	.	.	.	.	.	.	.	.	.
.	.	.	16d	.	.	.	.	.	.	.	.	.	.	.	.
.	.	.	16f#	.	.	.	.	.	.	.	.	.	.	.	.
=145	=145	=145	=145	=145	=145	=145	=145	=145	=145	=145	=145	=145	=145	=145	=145
4.r	2r	2r	8b	2r	2r	2r	2r	2r	2r	2r	4.r	2r	2r	2r	2r
.	.	.	4r	.	.	.	.	.	.	.	.	.	.	.	.
16dd	.	.	16d	.	.	.	.	.	.	.	16D	.	.	.	.
16gg	.	.	16g	.	.	.	.	.	.	.	16G	.	.	.	.
=146	=146	=146	=146	=146	=146	=146	=146	=146	=146	=146	=146	=146	=146	=146	=146
4bb	2r	2r	4b	8d 8B	8d	8G	8G	2r	2r	2r	4B	2r	2r	2r	2r
.	.	.	.	8r	8r	8r	8r	.	.	.	.	.	.	.	.
8ccc	.	.	8cc	8f# 8A	8c	8D	8D	.	.	.	8c	.	.	.	.
8aa	.	.	8a	8r	8r	8r	8r	.	.	.	8A	.	.	.	.
=147	=147	=147	=147	=147	=147	=147	=147	=147	=147	=147	=147	=147	=147	=147	=147
8gg	2r	2r	8g	8G 8g	8B	8GG	8GG	2r	2r	2r	8G	2r	2r	2r	2r
8gg	.	.	8g	4.r	4.r	4r	4r	.	.	.	8G	.	.	.	.
8gg	.	.	8g	.	.	.	.	.	.	.	8G	.	.	.	.
8bb	.	.	8b	.	.	8G	8G	.	.	.	8B	.	.	.	.
=148	=148	=148	=148	=148	=148	=148	=148	=148	=148	=148	=148	=148	=148	=148	=148
8aa	2r	2r	8a	2d	2r	8F#	8F#	2r	2r	2r	8A	2r	2r	2r	2r
8ccc	.	.	8cc	.	.	8A	8A	.	.	.	8c	.	.	.	.
8bb	.	.	8b	.	.	8G	8G	.	.	.	8B	.	.	.	.
8ddd	.	.	8dd	.	.	8B	8B	.	.	.	8d	.	.	.	.
=149	=149	=149	=149	=149	=149	=149	=149	=149	=149	=149	=149	=149	=149	=149	=149
8ddd	2r	2r	8dd	8e	2r	8A	8A	2r	2r	2r	8d	2r	2r	2r	2r
8ccc	.	.	8cc	8f#	.	8D	8D	.	.	.	8c	.	.	.	.
8bb	.	.	8b	8g	.	8G	8G	.	.	.	8B	.	.	.	.
16dd	.	.	16d	8r	.	8r	8r	.	.	.	16D	.	.	.	.
16aa	.	.	16a	.	.	.	.	.	.	.	16A	.	.	.	.
=150	=150	=150	=150	=150	=150	=150	=150	=150	=150	=150	=150	=150	=150	=150	=150
4ccc	2r	2r	4cc	4a	4d	4F#	4F#	2r	2r	2r	4c	2r	2r	2r	2r
8ddd	.	.	8dd	8r	8r	8r	8r	.	.	.	8d	.	.	.	.
8bb	.	.	8b	8g	8d	8G	8G	.	.	.	8B	.	.	.	.
=151	=151	=151	=151	=151	=151	=151	=151	=151	=151	=151	=151	=151	=151	=151	=151
8aa	2r	2r	8a	4f#	4d	4D	4D	2r	2r	2r	8A	2r	2r	2r	2r
8aa	.	.	8a	.	.	.	.	.	.	.	8A	.	.	.	.
8aa	.	.	8a	8r	8r	8r	8r	.	.	.	8A	.	.	.	.
8eee	.	.	8ee	8f#	8a	8c	8c	.	.	.	8e	.	.	.	.
=152	=152	=152	=152	=152	=152	=152	=152	=152	=152	=152	=152	=152	=152	=152	=152
8ddd	2r	2r	8dd	8g	8g	8B	8B	2r	2r	2r	8d	2r	2r	2r	2r
8ccc	.	.	8cc	8a	8e	8c	8c	.	.	.	8c	.	.	.	.
8bb	.	.	8b	8g	8d	8d	8d	.	.	.	8B	.	.	.	.
8aa	.	.	8a	8f#	8c	8D	8D	.	.	.	8A	.	.	.	.
=153	=153	=153	=153	=153	=153	=153	=153	=153	=153	=153	=153	=153	=153	=153	=153
8gg	2r	2r	8g	8g	8B	8G	8G	4.r	4.r	4.r	8G	2r	2r	2r	2r
8gg	.	.	8g	4.r	4.r	4.r	4.r	.	.	.	8G	.	.	.	.
8gg	.	.	8g	.	.	.	.	.	.	.	8G	.	.	.	.
16dd	.	.	16d	.	.	.	.	16dd	16dd	16dd	8r	.	.	.	.
16gg	.	.	16g	.	.	.	.	16gg	16gg	16gg	.	.	.	.	.
=154	=154	=154	=154	=154	=154	=154	=154	=154	=154	=154	=154	=154	=154	=154	=154
4bb-	4g	4GG	4b-	8b- 8d 8G	4g	4G	4G	4bb-	4bb-	4gg	4G	4G	4cc	4c	4dd
.	.	.	.	8r	.	.	.	.	.	.	.	.	.	.	.
8ccc	4dd	4D	8cc	8f# 8c	4c	4D	4D	8ccc	8ccc	8aa	4D	4D	4dd	4g	4dd
8aa	.	.	8a	8r	.	.	.	8aa	8aa	8ff#	.	.	.	.	.
=155	=155	=155	=155	=155	=155	=155	=155	=155	=155	=155	=155	=155	=155	=155	=155
4gg	4g	4GG	8g	8g 8B-	8B-	8E-	8E-	4gg	4gg	4gg	4E-	4E-	4cc	4c	4dd
.	.	.	8g	8B- 8g	8B-	8E-	8E-	.	.	.	.	.	.	.	.
8r	4r	4r	8g	8B- 8g	8B-	8E-	8E-	8r	8r	8r	8r	8r	4r	4r	4r
8ccc	.	.	8cc	8g	8e-	8e-	8e-	8ccc	8ccc	8cc	8e-	8e-	.	.	.
=156	=156	=156	=156	=156	=156	=156	=156	=156	=156	=156	=156	=156	=156	=156	=156
8bb	2r	2r	8b	8f	8d	8d	8d	8bb	8bb	8b	8d	8d	2r	2r	2r
4r	.	.	8b	8f	8d	8d	8d	4r	4r	4r	4r	4r	.	.	.
.	.	.	8b	8f	8d	8d	8d	.	.	.	.	.	.	.	.
8ff	.	.	8ff	8dd	8G	8B	8B	8ff	8ff	8dd	8B	8B	.	.	.
=157	=157	=157	=157	=157	=157	=157	=157	=157	=157	=157	=157	=157	=157	=157	=157
8ee-	2r	2r	8ee-	8g	8c	8c	8c	8ee-	8ee-	8g	8c	8c	2r	2r	2r
4r	.	.	8ee-	8g	8c	8c	8c	4r	4r	4r	4r	4r	.	.	.
.	.	.	8ee-	8g	8c	8c	8c	.	.	.	.	.	.	.	.
8bb-	.	.	8b-	8f	8d	8d	8d	8bb-	8bb-	8b-	8d	8d	.	.	.
=158	=158	=158	=158	=158	=158	=158	=158	=158	=158	=158	=158	=158	=158	=158	=158
8aa	2r	2r	8a	8e-	8c	8c	8c	8aa	8aa	8a	8c	8c	2r	2r	2r
4r	.	.	8a	8e-	8c	8c	8c	4r	4r	4r	4r	4r	.	.	.
.	.	.	8a	8e-	8c	8c	8c	.	.	.	.	.	.	.	.
8ee-	.	.	8ee-	8cc	8F	8A	8A	8ee-	8ee-	8cc	8A	8A	.	.	.
=159	=159	=159	=159	=159	=159	=159	=159	=159	=159	=159	=159	=159	=159	=159	=159
8dd	2r	2r	8dd	8f	8B-	8B-	8B-	8dd	8dd	8f	8B-	8B-	2r	2r	2r
4r	.	.	8dd	8f	8B-	8B-	8B-	4r	4r	4r	4.r	4.r	.	.	.
.	.	.	8dd	8f	8B-	8B-	8B-	.	.	.	.	.	.	.	.
8bb-	.	.	8bb-	8b-	8r	8r	8r	8bb-	8bb-	8dd	.	.	.	.	.
=160	=160	=160	=160	=160	=160	=160	=160	=160	=160	=160	=160	=160	=160	=160	=160
8aa	2r	2r	16aa	8e- 8a	8F	8FF	8FF	8aa	8aa	8ee-	8FF	8FF	2r	2r	2r
.	.	.	16bb-	.	.	.	.	.	.	.	.	.	.	.	.
8r	.	.	16ccc	8r	8f	8F	8F	8r	8r	8r	8F	8F	.	.	.
.	.	.	16aa	.	.	.	.	.	.	.	.	.	.	.	.
8ee-	.	.	16ee-	8f 8ee- 8A	8A	8AA	8AA	8ee-	8ee-	8cc	8AA	8AA	.	.	.
.	.	.	16ff	.	.	.	.	.	.	.	.	.	.	.	.
8r	.	.	16gg	8r	8a	8A	8A	8r	8r	8r	8A	8A	.	.	.
.	.	.	16ee-	.	.	.	.	.	.	.	.	.	.	.	.
=161	=161	=161	=161	=161	=161	=161	=161	=161	=161	=161	=161	=161	=161	=161	=161
8dd	2r	2r	16dd	8dd 8B- 8f	8B-	8BB-	8BB-	8dd	8dd	8b-	8BB-	8BB-	2r	2r	2r
.	.	.	16ee-	.	.	.	.	.	.	.	.	.	.	.	.
8r	.	.	16ff	8r	8b-	8B-	8B-	8r	8r	8r	8B-	8B-	.	.	.
.	.	.	16dd	.	.	.	.	.	.	.	.	.	.	.	.
8bb-	.	.	16b-	8b- 8bb- 8d	8d	8D	8D	8bb-	8bb-	8f	8D	8D	.	.	.
.	.	.	16cc	.	.	.	.	.	.	.	.	.	.	.	.
8r	.	.	16dd	8r	8dd	8d	8d	8r	8r	8r	8d	8d	.	.	.
.	.	.	16b-	.	.	.	.	.	.	.	.	.	.	.	.
=162	=162	=162	=162	=162	=162	=162	=162	=162	=162	=162	=162	=162	=162	=162	=162
8ccc	2r	2r	16a	8aa 8cc 8e-	8f	8F	8F	8ccc	8aa	8e-	8F	8F	2r	2r	2r
.	.	.	16b-	.	.	.	.	.	.	.	.	.	.	.	.
8r	.	.	16cc	8r	8ff	8f	8f	8r	8r	8r	8f	8f	.	.	.
.	.	.	16a	.	.	.	.	.	.	.	.	.	.	.	.
8ee-	.	.	16f	8ee- 8f 8A	8A	8AA	8AA	8ee-	8ee-	8cc	8AA	8AA	.	.	.
.	.	.	16g	.	.	.	.	.	.	.	.	.	.	.	.
8r	.	.	16f	8r	8f	8F	8F	8r	8r	8r	8F	8F	.	.	.
.	.	.	16e-	.	.	.	.	.	.	.	.	.	.	.	.
=163	=163	=163	=163	=163	=163	=163	=163	=163	=163	=163	=163	=163	=163	=163	=163
4dd	2r	2r	16d	8dd 8f	8B-	8BB-	8BB-	4dd	4dd	4f	8BB-	8BB-	2r	2r	2r
.	.	.	16e-	.	.	.	.	.	.	.	.	.	.	.	.
.	.	.	16f	16d	4B-	4B-	4B-	.	.	.	4B-	4B-	.	.	.
.	.	.	16e-	16e-	.	.	.	.	.	.	.	.	.	.	.
8r	.	.	16d	8f	.	.	.	8r	8r	8r	.	.	.	.	.
.	.	.	16e-	.	.	.	.	.	.	.	.	.	.	.	.
8ff#	.	.	16c	8f#	8A-	8A-	8A-	8ff#	8cc	8f#	8A-	8A-	.	.	.
.	.	.	16d	.	.	.	.	.	.	.	.	.	.	.	.
=164	=164	=164	=164	=164	=164	=164	=164	=164	=164	=164	=164	=164	=164	=164	=164
4gg	2r	2r	16B	4g	4G	4G	4G	4gg	4b	4g	4G	4G	2r	2r	2r
.	.	.	16c	.	.	.	.	.	.	.	.	.	.	.	.
.	.	.	16A	.	.	.	.	.	.	.	.	.	.	.	.
.	.	.	16B	.	.	.	.	.	.	.	.	.	.	.	.
8r	.	.	16G	8r	8r	8r	8r	8r	8r	8r	8r	8r	.	.	.
.	.	.	16a-	.	.	.	.	.	.	.	.	.	.	.	.
8ff	.	.	16g	8G 8d	8B	8BB	8BB	8ff	8ff	8dd	8BB	8BB	.	.	.
.	.	.	16f	.	.	.	.	.	.	.	.	.	.	.	.
=165	=165	=165	=165	=165	=165	=165	=165	=165	=165	=165	=165	=165	=165	=165	=165
4ee-	2r	2r	16e-	8G 8e-	8c	8C	8C	4ee-	4ee-	4g	8C	8C	2r	2r	2r
.	.	.	16f	.	.	.	.	.	.	.	.	.	.	.	.
.	.	.	16g	16e-	4c	4c	4c	.	.	.	4c	4c	.	.	.
.	.	.	16f	16f	.	.	.	.	.	.	.	.	.	.	.
8r	.	.	16e	8g	.	.	.	8r	8r	8r	.	.	.	.	.
.	.	.	16f	.	.	.	.	.	.	.	.	.	.	.	.
8gg#	.	.	16e	8g#	8B-	8B-	8B-	8gg#	8dd	8g#	8B-	8B-	.	.	.
.	.	.	16d	.	.	.	.	.	.	.	.	.	.	.	.
=166	=166	=166	=166	=166	=166	=166	=166	=166	=166	=166	=166	=166	=166	=166	=166
4aa	2r	2r	16c#	4a	4A	4A	4A	4aa	4cc#	4a	4A	4A	2r	2r	2r
.	.	.	16d	.	.	.	.	.	.	.	.	.	.	.	.
.	.	.	16B	.	.	.	.	.	.	.	.	.	.	.	.
.	.	.	16c#	.	.	.	.	.	.	.	.	.	.	.	.
8r	.	.	16A	8r	8r	8r	8r	8r	8r	8r	8r	8r	.	.	.
.	.	.	16c#	.	.	.	.	.	.	.	.	.	.	.	.
8gg	.	.	16e	8e 8A	8c#	8C#	8C#	8gg	8gg	8ee	8C#	8C#	.	.	.
.	.	.	16g	.	.	.	.	.	.	.	.	.	.	.	.
=167	=167	=167	=167	=167	=167	=167	=167	=167	=167	=167	=167	=167	=167	=167	=167
4ff#	4dd	4D	16f#	4f# 4A	4d	16D	16D	4ff#	4ff#	4dd	4D	4D	[2g	[2G	4dd
.	.	.	16g	.	.	16D	16D	.	.	.	.	.	.	.	.
.	.	.	16f#	.	.	16D	16D	.	.	.	.	.	.	.	.
.	.	.	16e	.	.	16D	16D	.	.	.	.	.	.	.	.
8r	4r	4r	8d	8r	8r	16D	16D	8r	8r	8r	4A	4F#	.	.	4r
.	.	.	.	.	.	16D	16D	.	.	.	.	.	.	.	.
8dd	.	.	8dd	8f#	8F#	16D	16D	8dd	8dd	8f#	.	.	.	.	.
.	.	.	.	.	.	16D	16D	.	.	.	.	.	.	.	.
=168	=168	=168	=168	=168	=168	=168	=168	=168	=168	=168	=168	=168	=168	=168	=168
8ee-	2r	4D	8ee-	8g	16G	16D	16D	8ee-	2ee-	4g	2B-	2G	2g_	2G_	2r
.	.	.	.	.	16B-	16D	16D	.	.	.	.	.	.	.	.
8e-	.	.	8e-	16G	16G	16D	16D	8e-	.	.	.	.	.	.	.
.	.	.	.	16B-	16B-	16D	16D	.	.	.	.	.	.	.	.
8e-	.	4r	8e-	16G	16G	16D	16D	8e-	.	8r	.	.	.	.	.
.	.	.	.	16B-	16B-	16D	16D	.	.	.	.	.	.	.	.
8ee-	.	.	8ee-	16G	16G	16D	16D	8ee-	.	8g	.	.	.	.	.
.	.	.	.	16B-	16B-	16D	16D	.	.	.	.	.	.	.	.
=169	=169	=169	=169	=169	=169	=169	=169	=169	=169	=169	=169	=169	=169	=169	=169
8ff#	4dd	4D	8ff#	16A	16A	16D	16D	8ff#	2ff#	4a	2c	2A	2g_	2G_	4dd
.	.	.	.	16c	16c	16D	16D	.	.	.	.	.	.	.	.
8f#	.	.	8f#	16A	16A	16D	16D	8f#	.	.	.	.	.	.	.
.	.	.	.	16c	16c	16D	16D	.	.	.	.	.	.	.	.
8f#	4r	4r	8f#	16A	16A	16D	16D	8f#	.	8r	.	.	.	.	4r
.	.	.	.	16c	16c	16D	16D	.	.	.	.	.	.	.	.
8ff#	.	.	8ff#	16A	16A	16D	16D	8ff#	.	8a	.	.	.	.	.
.	.	.	.	16c	16c	16D	16D	.	.	.	.	.	.	.	.
=170	=170	=170	=170	=170	=170	=170	=170	=170	=170	=170	=170	=170	=170	=170	=170
8gg	4dd	4D	8gg	16G	16G	16D	16D	8gg	2gg	2b-	[2B-	[2G	2g]	2G]	4dd
.	.	.	.	16B-	16B-	16D	16D	.	.	.	.	.	.	.	.
8g	.	.	8g	16G	16G	16D	16D	8g	.	.	.	.	.	.	.
.	.	.	.	16B-	16B-	16D	16D	.	.	.	.	.	.	.	.
8g	4r	4r	8g	16G	16G	16D	16D	8g	.	.	.	.	.	.	4r
.	.	.	.	16B-	16B-	16D	16D	.	.	.	.	.	.	.	.
8gg	.	.	8gg	16G	16G	16D	16D	8gg	.	.	.	.	.	.	.
.	.	.	.	16B-	16B-	16D	16D	.	.	.	.	.	.	.	.
=171	=171	=171	=171	=171	=171	=171	=171	=171	=171	=171	=171	=171	=171	=171	=171
4.bb-	2g	4GG	8bb-	16G	16G	16E-	16E-	4.bb-	2ccc#	2gg	2B-]	2G]	2cc	2c	2g
.	.	.	.	16B-	16B-	16E-	16E-	.	.	.	.	.	.	.	.
.	.	.	8cc#	16G	16G	16E-	16E-	.	.	.	.	.	.	.	.
.	.	.	.	16B-	16B-	16E-	16E-	.	.	.	.	.	.	.	.
.	.	4r	8cc#	8G	8G	16E-	16E-	.	.	.	.	.	.	.	.
.	.	.	.	.	.	16E-	16E-	.	.	.	.	.	.	.	.
8gg	.	.	8ccc#	8g	8e-	16E-	16E-	8gg	.	.	.	.	.	.	.
.	.	.	.	.	.	16E-	16E-	.	.	.	.	.	.	.	.
=172	=172	=172	=172	=172	=172	=172	=172	=172	=172	=172	=172	=172	=172	=172	=172
2ddd	[2dd	4D	8ddd	16f#	8d	16D	16D	2ddd	2ddd	2dd	4.d	4.D	[2g	[2G	[2dd
.	.	.	.	16g	.	16D	16D	.	.	.	.	.	.	.	.
.	.	.	8dd	16a	16a	16D	16D	.	.	.	.	.	.	.	.
.	.	.	.	16g	16g	16D	16D	.	.	.	.	.	.	.	.
.	.	4r	8dd	16f#	16f#	8D	8D	.	.	.	.	.	.	.	.
.	.	.	.	16g	16g	.	.	.	.	.	.	.	.	.	.
.	.	.	8ddd	16a	16a	8d	8d	.	.	.	8d	8d	.	.	.
.	.	.	.	16g	16g	.	.	.	.	.	.	.	.	.	.
=173	=173	=173	=173	=173	=173	=173	=173	=173	=173	=173	=173	=173	=173	=173	=173
4ccc	2dd_	4D	8dd	16f#	16f#	8D	8D	4ccc	4ccc	4ff#	8D	8D	2g_	2G_	2dd_
.	.	.	.	16g	16g	.	.	.	.	.	.	.	.	.	.
.	.	.	8ccc	16a	16a	8c	8c	.	.	.	8c	8c	.	.	.
.	.	.	.	16f#	16f#	.	.	.	.	.	.	.	.	.	.
4bb-	.	4D	8dd	16g	16g	8D	8D	4bb-	4bb-	4gg	8D	8D	.	.	.
.	.	.	.	16a	16a	.	.	.	.	.	.	.	.	.	.
.	.	.	8bb-	16b-	16b-	8B-	8B-	.	.	.	8B-	8B-	.	.	.
.	.	.	.	16g	16g	.	.	.	.	.	.	.	.	.	.
=174	=174	=174	=174	=174	=174	=174	=174	=174	=174	=174	=174	=174	=174	=174	=174
4aa	2dd]	4D	8dd	16f#	16f#	8D	8D	4aa	4aa	4aa	8D	8D	2g_	2G_	2dd]
.	.	.	.	16a	16a	.	.	.	.	.	.	.	.	.	.
.	.	.	8aa	16f#	16f#	8A	8A	.	.	.	8A	8A	.	.	.
.	.	.	.	16d	16d	.	.	.	.	.	.	.	.	.	.
4gg	.	4D	8dd	16c#	16c#	8D	8D	4gg	4gg	4cc#	8D	8D	.	.	.
.	.	.	.	16d	16d	.	.	.	.	.	.	.	.	.	.
.	.	.	8gg	16e	16e	8G	8G	.	.	.	8G	8G	.	.	.
.	.	.	.	16c#	16c#	.	.	.	.	.	.	.	.	.	.
=175	=175	=175	=175	=175	=175	=175	=175	=175	=175	=175	=175	=175	=175	=175	=175
8ff#	8dd	4D	16ff#	8d	8d	8D	8D	8ff#	8ff#	8dd	8D	8D	2g_	2G_	8dd
.	.	.	16gg	.	.	.	.	.	.	.	.	.	.	.	.
8r	8r	.	16aa	8r	8r	8r	8r	8r	8r	8r	8r	8r	.	.	8r
.	.	.	16ff#	.	.	.	.	.	.	.	.	.	.	.	.
8ff#	8dd	4D	16dd	8f# 8a	8d	8D	8D	8ff#	8ddd	8dd	8D	8D	.	.	8dd
.	.	.	16ee-	.	.	.	.	.	.	.	.	.	.	.	.
8r	8r	.	16dd	8r	8r	8r	8r	8r	8r	8r	8r	8r	.	.	8r
.	.	.	16cc	.	.	.	.	.	.	.	.	.	.	.	.
=176	=176	=176	=176	=176	=176	=176	=176	=176	=176	=176	=176	=176	=176	=176	=176
8gg	8g	8D	16b-	8g 8b-	8d	8D	8D	8gg	8bb-	8b-	8D	8D	2g_	2G_	8gg
.	.	.	16cc	.	.	.	.	.	.	.	.	.	.	.	.
8r	8r	8r	16b-	8r	8r	8r	8r	8r	8r	8r	8r	8r	.	.	8r
.	.	.	16a	.	.	.	.	.	.	.	.	.	.	.	.
8ccc#	8g	8D	16g	8c#	8c#	8D	8D	8ccc#	8gg	8g	8D	8D	.	.	8gg
.	.	.	16b-	.	.	.	.	.	.	.	.	.	.	.	.
8r	8r	8r	16a	8r	8r	8r	8r	8r	8r	8r	8r	8r	.	.	8r
.	.	.	16g	.	.	.	.	.	.	.	.	.	.	.	.
=177	=177	=177	=177	=177	=177	=177	=177	=177	=177	=177	=177	=177	=177	=177	=177
4ddd	4dd	4D	16f#	8d	8d	8D	8D	4ddd	4dd	4d	4D	4D	4g]	4G]	4dd
.	.	.	16g	.	.	.	.	.	.	.	.	.	.	.	.
.	.	.	16a	4.r	4.r	4.r	4.r	.	.	.	.	.	.	.	.
.	.	.	16f#	.	.	.	.	.	.	.	.	.	.	.	.
4r	4r	4r	16d	.	.	.	.	4r	4r	4r	4r	4r	4r	4r	4r
.	.	.	16c#	.	.	.	.	.	.	.	.	.	.	.	.
.	.	.	16d	.	.	.	.	.	.	.	.	.	.	.	.
.	.	.	16e	.	.	.	.	.	.	.	.	.	.	.	.
=178	=178	=178	=178	=178	=178	=178	=178	=178	=178	=178	=178	=178	=178	=178	=178
2r	2r	2r	16f#	8d	8F#	8D	8D	2r	2r	2r	2r	2r	2r	2r	2r
.	.	.	16g	.	.	.	.	.	.	.	.	.	.	.	.
.	.	.	16a	4.r	4.r	4.r	4.r	.	.	.	.	.	.	.	.
.	.	.	16f#	.	.	.	.	.	.	.	.	.	.	.	.
.	.	.	16d	.	.	.	.	.	.	.	.	.	.	.	.
.	.	.	16c#	.	.	.	.	.	.	.	.	.	.	.	.
.	.	.	16d	.	.	.	.	.	.	.	.	.	.	.	.
.	.	.	16e	.	.	.	.	.	.	.	.	.	.	.	.
=179	=179	=179	=179	=179	=179	=179	=179	=179	=179	=179	=179	=179	=179	=179	=179
2r	2r	2r	16f#	8d	8F#	8D	8D	2r	2r	2r	2r	2r	2r	2r	2r
.	.	.	16g	.	.	.	.	.	.	.	.	.	.	.	.
.	.	.	16a	4.r	4.r	4.r	4.r	.	.	.	.	.	.	.	.
.	.	.	16f#	.	.	.	.	.	.	.	.	.	.	.	.
.	.	.	16d	.	.	.	.	.	.	.	.	.	.	.	.
.	.	.	16e	.	.	.	.	.	.	.	.	.	.	.	.
.	.	.	16f#	.	.	.	.	.	.	.	.	.	.	.	.
.	.	.	16g	.	.	.	.	.	.	.	.	.	.	.	.
=180	=180	=180	=180	=180	=180	=180	=180	=180	=180	=180	=180	=180	=180	=180	=180
2r	2r	2r	16a	2r	2r	2r	2r	2r	2r	2r	2r	2r	2r	2r	2r
.	.	.	16d	.	.	.	.	.	.	.	.	.	.	.	.
.	.	.	16f#	.	.	.	.	.	.	.	.	.	.	.	.
.	.	.	16g	.	.	.	.	.	.	.	.	.	.	.	.
.	.	.	16a	.	.	.	.	.	.	.	.	.	.	.	.
.	.	.	16d	.	.	.	.	.	.	.	.	.	.	.	.
.	.	.	16f#	.	.	.	.	.	.	.	.	.	.	.	.
.	.	.	16g	.	.	.	.	.	.	.	.	.	.	.	.
=181	=181	=181	=181	=181	=181	=181	=181	=181	=181	=181	=181	=181	=181	=181	=181
4.r	2r	2r	16a	2r	2r	2r	2r	2r	2r	2r	4.r	2r	2r	2r	2r
.	.	.	16d	.	.	.	.	.	.	.	.	.	.	.	.
.	.	.	16f#	.	.	.	.	.	.	.	.	.	.	.	.
.	.	.	16g	.	.	.	.	.	.	.	.	.	.	.	.
.	.	.	16a	.	.	.	.	.	.	.	.	.	.	.	.
.	.	.	16d	.	.	.	.	.	.	.	.	.	.	.	.
16gg	.	.	16g	.	.	.	.	.	.	.	16G	.	.	.	.
16aa	.	.	16a	.	.	.	.	.	.	.	16A	.	.	.	.
=182	=182	=182	=182	=182	=182	=182	=182	=182	=182	=182	=182	=182	=182	=182	=182
4bb	2r	2r	4b	8d 8B	8d	8G	8G	2r	2r	2r	4B	2r	2r	2r	2r
.	.	.	.	8r	8r	8r	8r	.	.	.	.	.	.	.	.
8ccc	.	.	8cc	8f# 8A	8c	8D	8D	.	.	.	8c	.	.	.	.
8aa	.	.	8a	8r	8r	8r	8r	.	.	.	8A	.	.	.	.
=183	=183	=183	=183	=183	=183	=183	=183	=183	=183	=183	=183	=183	=183	=183	=183
8gg	2r	2r	8g	8g 8G	8B	8GG	8GG	2r	2r	2r	8G	2r	2r	2r	2r
8gg	.	.	8g	4.r	4.r	4r	4r	.	.	.	8G	.	.	.	.
8gg	.	.	8g	.	.	.	.	.	.	.	8G	.	.	.	.
8bb	.	.	8b	.	.	8G	8G	.	.	.	8B	.	.	.	.
=184	=184	=184	=184	=184	=184	=184	=184	=184	=184	=184	=184	=184	=184	=184	=184
8aa	2r	2r	8a	2d	2r	8F#	8F#	2r	2r	2r	8A	2r	2r	2r	2r
8ccc	.	.	8cc	.	.	8A	8A	.	.	.	8c	.	.	.	.
8bb	.	.	8b	.	.	8G	8G	.	.	.	8B	.	.	.	.
8ddd	.	.	8dd	.	.	8B	8B	.	.	.	8d	.	.	.	.
=185	=185	=185	=185	=185	=185	=185	=185	=185	=185	=185	=185	=185	=185	=185	=185
8ddd	2r	2r	8dd	8e	2r	8A	8A	2r	2r	2r	8d	2r	2r	2r	2r
8ccc	.	.	8cc	8f#	.	8D	8D	.	.	.	8c	.	.	.	.
8bb	.	.	8b	8g	.	8G	8G	.	.	.	8B	.	.	.	.
16dd	.	.	16d	8r	.	8r	8r	.	.	.	16D	.	.	.	.
16aa	.	.	16a	.	.	.	.	.	.	.	16A	.	.	.	.
=186	=186	=186	=186	=186	=186	=186	=186	=186	=186	=186	=186	=186	=186	=186	=186
4ccc	2r	2r	4cc	4a	4d	4F#	4F#	2r	2r	2r	4c	2r	2r	2r	2r
8ddd	.	.	8dd	8r	8r	8r	8r	.	.	.	8d	.	.	.	.
8bb	.	.	8b	8g	8d	8G	8G	.	.	.	8B	.	.	.	.
=187	=187	=187	=187	=187	=187	=187	=187	=187	=187	=187	=187	=187	=187	=187	=187
8aa	2r	2r	8a	4f#	4d	4D	4D	2r	2r	2r	8A	2r	2r	2r	2r
8aa	.	.	8a	.	.	.	.	.	.	.	8A	.	.	.	.
8aa	.	.	8a	8r	8r	8r	8r	.	.	.	8A	.	.	.	.
8eee	.	.	8ee	8f#	8a	8c	8c	.	.	.	8e	.	.	.	.
=188	=188	=188	=188	=188	=188	=188	=188	=188	=188	=188	=188	=188	=188	=188	=188
8ddd	2r	2r	8dd	8g	8g	8B	8B	2r	2r	2r	8d	2r	2r	2r	2r
8ccc	.	.	8cc	8a	8e	8c	8c	.	.	.	8c	.	.	.	.
8bb	.	.	8b	8g	8d	8d	8d	.	.	.	8B	.	.	.	.
8aa	.	.	8a	8f#	8c	8D	8D	.	.	.	8A	.	.	.	.
=189	=189	=189	=189	=189	=189	=189	=189	=189	=189	=189	=189	=189	=189	=189	=189
8gg	2r	2r	8g	8g	8B	8G	8G	2r	4.r	4.r	8G	2r	2r	2r	2r
8gg	.	.	8g	4.r	4.r	4.r	4.r	.	.	.	8G	.	.	.	.
8gg	.	.	8g	.	.	.	.	.	.	.	8G	.	.	.	.
8bb	.	.	8r	.	.	.	.	.	8dd	8g	8r	.	.	.	.
=190	=190	=190	=190	=190	=190	=190	=190	=190	=190	=190	=190	=190	=190	=190	=190
8aa	2r	2r	2r	2r	2r	2r	2r	2r	4dd	4f#	2r	2r	2r	2r	2r
8ddd	.	.	.	.	.	.	.	.	.	.	.	.	.	.	.
8dd	.	.	.	.	.	.	.	.	8r	8r	.	.	.	.	.
8gg	.	.	.	.	.	.	.	.	8cc#	8e	.	.	.	.	.
=191	=191	=191	=191	=191	=191	=191	=191	=191	=191	=191	=191	=191	=191	=191	=191
16ff#	2r	2r	4.r	4.r	4.r	4.r	4.r	2r	4dd	4d	2r	2r	2r	2r	2r
16gg	.	.	.	.	.	.	.	.	.	.	.	.	.	.	.
16aa	.	.	.	.	.	.	.	.	.	.	.	.	.	.	.
16ff#	.	.	.	.	.	.	.	.	.	.	.	.	.	.	.
8dd	.	.	.	.	.	.	.	.	4r	4r	.	.	.	.	.
8r	.	.	8ee	8g	8c	8c	8c	.	.	.	.	.	.	.	.
=192	=192	=192	=192	=192	=192	=192	=192	=192	=192	=192	=192	=192	=192	=192	=192
2r	2r	2r	8dd	4g	4B	4B	4B	2r	2r	2r	2r	2r	2r	2r	2r
.	.	.	8gg	.	.	.	.	.	.	.	.	.	.	.	.
.	.	.	8g	8r	8r	8r	8r	.	.	.	.	.	.	.	.
.	.	.	8cc	8f#	8A	8A	8A	.	.	.	.	.	.	.	.
=193	=193	=193	=193	=193	=193	=193	=193	=193	=193	=193	=193	=193	=193	=193	=193
2r	2r	2r	16b	4g	4G	4G	4G	2r	2r	2r	2r	2r	2r	2r	2r
.	.	.	16cc	.	.	.	.	.	.	.	.	.	.	.	.
.	.	.	16dd	.	.	.	.	.	.	.	.	.	.	.	.
.	.	.	16b	.	.	.	.	.	.	.	.	.	.	.	.
.	.	.	8g	8r	8r	8r	8r	.	.	.	.	.	.	.	.
.	.	.	16g	[8G	8d	8BB	8BB	.	.	.	.	.	.	.	.
.	.	.	16f#	.	.	.	.	.	.	.	.	.	.	.	.
=194	=194	=194	=194	=194	=194	=194	=194	=194	=194	=194	=194	=194	=194	=194	=194
2r	2r	2r	8e	8G]	4e	4C	4C	2r	2r	2r	2r	2r	2r	2r	2r
.	.	.	16a	4A	.	.	.	.	.	.	.	.	.	.	.
.	.	.	16g	.	.	.	.	.	.	.	.	.	.	.	.
.	.	.	8f#	.	4f#	4D	4D	.	.	.	.	.	.	.	.
.	.	.	16b	[8B	.	.	.	.	.	.	.	.	.	.	.
.	.	.	16a	.	.	.	.	.	.	.	.	.	.	.	.
=195	=195	=195	=195	=195	=195	=195	=195	=195	=195	=195	=195	=195	=195	=195	=195
2r	2r	2r	8g	8B]	4g	4E	4E	2r	2r	2r	2r	2r	2r	2r	2r
.	.	.	16cc	4c	.	.	.	.	.	.	.	.	.	.	.
.	.	.	16b	.	.	.	.	.	.	.	.	.	.	.	.
.	.	.	8a	.	4a	4F#	4F#	.	.	.	.	.	.	.	.
.	.	.	16dd	[8d	.	.	.	.	.	.	.	.	.	.	.
.	.	.	16cc	.	.	.	.	.	.	.	.	.	.	.	.
=196	=196	=196	=196	=196	=196	=196	=196	=196	=196	=196	=196	=196	=196	=196	=196
2r	2r	2r	8b	8d]	4b	4.G	4.G	2r	2r	2r	2r	2r	2r	2r	2r
.	.	.	8gg	8b	.	.	.	.	.	.	.	.	.	.	.
.	.	.	8ee	8g	8r	.	.	.	.	.	.	.	.	.	.
.	.	.	8cc#	8g	8e	8E	8E	.	.	.	.	.	.	.	.
=197	=197	=197	=197	=197	=197	=197	=197	=197	=197	=197	=197	=197	=197	=197	=197
2r	2r	2r	8dd	2f#	2d	[2D	[2D	2r	2r	2r	2r	2r	2r	2r	2r
.	.	.	8aa	.	.	.	.	.	.	.	.	.	.	.	.
.	.	.	8ff#	.	.	.	.	.	.	.	.	.	.	.	.
.	.	.	8dd	.	.	.	.	.	.	.	.	.	.	.	.
=198	=198	=198	=198	=198	=198	=198	=198	=198	=198	=198	=198	=198	=198	=198	=198
2r	2r	2r	8cc#	2g	2e	2D]	2D]	2r	2r	2r	2r	2r	2r	2r	2r
.	.	.	8gg	.	.	.	.	.	.	.	.	.	.	.	.
.	.	.	8ee	.	.	.	.	.	.	.	.	.	.	.	.
.	.	.	8cc#	.	.	.	.	.	.	.	.	.	.	.	.
=199	=199	=199	=199	=199	=199	=199	=199	=199	=199	=199	=199	=199	=199	=199	=199
[2ddd	[2dd	4D	16dd	4A 4f#	4d	4D	4D	[2ddd	4dd	4dd	4D	4D	4g	4g	[2dd
.	.	.	16ddd	.	.	.	.	.	.	.	.	.	.	.	.
.	.	.	16dd	.	.	.	.	.	.	.	.	.	.	.	.
.	.	.	16ddd	.	.	.	.	.	.	.	.	.	.	.	.
.	.	4r	16dd	8r	4r	4r	4r	.	8r	4r	4r	4r	4r	4r	.
.	.	.	16ddd	.	.	.	.	.	.	.	.	.	.	.	.
.	.	.	16dd	16d	.	.	.	.	16dd	.	.	.	.	.	.
.	.	.	16ddd	16g	.	.	.	.	16gg	.	.	.	.	.	.
=200	=200	=200	=200	=200	=200	=200	=200	=200	=200	=200	=200	=200	=200	=200	=200
2ddd_	2dd_	4GG	16dd	4b	4g	2r	2r	2ddd_	4bb	4gg	4G	4G	4ee	4cc	2dd_
.	.	.	16ddd	.	.	.	.	.	.	.	.	.	.	.	.
.	.	.	16dd	.	.	.	.	.	.	.	.	.	.	.	.
.	.	.	16ddd	.	.	.	.	.	.	.	.	.	.	.	.
.	.	4r	16dd	8cc	8a	.	.	.	8ccc	8aa	8A	8A	4ff	4dd	.
.	.	.	16ddd	.	.	.	.	.	.	.	.	.	.	.	.
.	.	.	16dd	8a	8f#	.	.	.	8aa	8ff#	8F#	8F#	.	.	.
.	.	.	16ddd	.	.	.	.	.	.	.	.	.	.	.	.
=201	=201	=201	=201	=201	=201	=201	=201	=201	=201	=201	=201	=201	=201	=201	=201
2ddd_	2dd_	4D	16dd	8f#	8d	4.r	4.r	2ddd_	8ff#	8dd	8D	8D	4dd	4g	2dd_
.	.	.	16ddd	.	.	.	.	.	.	.	.	.	.	.	.
.	.	.	16dd	8f#	8d	.	.	.	8ff#	8dd	8D	8D	.	.	.
.	.	.	16ddd	.	.	.	.	.	.	.	.	.	.	.	.
.	.	4r	16dd	8f#	8d	.	.	.	8ff#	8dd	8D	8D	4r	4r	.
.	.	.	16ddd	.	.	.	.	.	.	.	.	.	.	.	.
.	.	.	16dd	8r	16d	16D	16D	.	8r	8r	16D	16D	.	.	.
.	.	.	16ddd	.	16g	16G	16G	.	.	.	16G	16G	.	.	.
=202	=202	=202	=202	=202	=202	=202	=202	=202	=202	=202	=202	=202	=202	=202	=202
2ddd_	2dd_	4GG	16dd	4g	4b	4B	4B	2ddd_	4gg	[2dd	4B	4B	4ee	4cc	2dd_
.	.	.	16ddd	.	.	.	.	.	.	.	.	.	.	.	.
.	.	.	16dd	.	.	.	.	.	.	.	.	.	.	.	.
.	.	.	16ddd	.	.	.	.	.	.	.	.	.	.	.	.
.	.	4r	16dd	8a	8cc	8c	8c	.	8aa	.	8c	8c	4ff	4dd	.
.	.	.	16ddd	.	.	.	.	.	.	.	.	.	.	.	.
.	.	.	16dd	8f#	8a	8A	8A	.	8ff#	.	8A	8A	.	.	.
.	.	.	16ddd	.	.	.	.	.	.	.	.	.	.	.	.
=203	=203	=203	=203	=203	=203	=203	=203	=203	=203	=203	=203	=203	=203	=203	=203
2ddd]	2dd]	4D	16dd	8d	8f#	8F#	8F#	2ddd]	8dd	4dd]	8F#	8F#	4dd	4g	2dd]
.	.	.	16ddd	.	.	.	.	.	.	.	.	.	.	.	.
.	.	.	16dd	8d	8f#	8F#	8F#	.	8dd	.	8F#	8F#	.	.	.
.	.	.	16ddd	.	.	.	.	.	.	.	.	.	.	.	.
.	.	4r	8dd	8d	8f#	8F#	8F#	.	8dd	4r	8F#	8F#	4r	4r	.
.	.	.	16dd	8r	8r	8r	8r	.	16dd	.	8r	8r	.	.	.
.	.	.	16ff#	.	.	.	.	.	16ff#	.	.	.	.	.	.
=204	=204	=204	=204	=204	=204	=204	=204	=204	=204	=204	=204	=204	=204	=204	=204
4gg	2g	4GG	4gg	2G 2d	8B	8BB	8BB	4gg	4gg	2dd	2B	2B	[2cc	[2cc	2dd
.	.	.	.	.	8B	8B	8B	.	.	.	.	.	.	.	.
8aa	.	8GG	8aa	.	8B	8B	8B	8aa	8aa	.	.	.	.	.	.
8ff	.	8GG	8ff	.	8B	8B	8B	8ff	8ff	.	.	.	.	.	.
=205	=205	=205	=205	=205	=205	=205	=205	=205	=205	=205	=205	=205	=205	=205	=205
8ee	4cc	4GG	16ee	16e	8c	8c	8c	8ee	8ee	8ee	8c	8c	4cc]	4cc]	4ee
.	.	.	16ee	16e	.	.	.	.	.	.	.	.	.	.	.
8ddd#	.	.	16ddd#	16dd#	8B	8B	8B	8ddd#	8dd#	8dd#	8B	8B	.	.	.
.	.	.	16ddd#	16dd#	.	.	.	.	.	.	.	.	.	.	.
8eee	4r	4r	16eee	16ee	8c	8c	8c	8eee	8ee	8ee	8c	8c	4r	4r	4r
.	.	.	16eee	16ee	.	.	.	.	.	.	.	.	.	.	.
8ddd	.	.	16ddd	16g#	8B-	8B-	8B-	8ddd	8gg#	8dd	8B-	8B-	.	.	.
.	.	.	16ddd	16g#	.	.	.	.	.	.	.	.	.	.	.
=206	=206	=206	=206	=206	=206	=206	=206	=206	=206	=206	=206	=206	=206	=206	=206
4ccc#	2r	2r	16ccc#	16a	8A	8A	8A	4ccc#	4aa	4cc#	4A	4A	2r	2r	2r
.	.	.	16ccc#	16a	.	.	.	.	.	.	.	.	.	.	.
.	.	.	16ccc#	16ee	8A	8A	8A	.	.	.	.	.	.	.	.
.	.	.	16ccc#	16ee	.	.	.	.	.	.	.	.	.	.	.
4ccc	.	.	16ccc	16f#	8d	8d	8d	4ccc	4ccc	4a	4d	4D	.	.	.
.	.	.	16ccc	16f#	.	.	.	.	.	.	.	.	.	.	.
.	.	.	16ccc	16a	8d	8d	8d	.	.	.	.	.	.	.	.
.	.	.	16ccc	16a	.	.	.	.	.	.	.	.	.	.	.
=207	=207	=207	=207	=207	=207	=207	=207	=207	=207	=207	=207	=207	=207	=207	=207
8bb	2r	2r	8bb	8g	8G	8G	8G	8bb	8bb	8dd	8G	8G	4r	4r	2r
8r	.	.	8r	8r	8r	8r	8r	8r	8r	8r	8r	8r	.	.	.
8aa	.	.	8cc 8aa	8aa 8cc	8C	8C	8C	8aa	8aa	8cc	8C	8C	8ff	8dd	.
8r	.	.	8r	8r	8r	8r	8r	8r	8r	8r	8r	8r	8r	8r	.
=208	=208	=208	=208	=208	=208	=208	=208	=208	=208	=208	=208	=208	=208	=208	=208
8gg	2r	8D	8b 8gg	8gg 8b	8D	8D	8D	8gg	8gg	8b	8D	8D	8ee	8cc	2r
8r	.	8r	8r	8r	8r	8r	8r	8r	8r	8r	8r	8r	8r	8r	.
8ff#	.	8D	8a 8ff#	8ff# 8a	8D	8D	8D	8ff#	8ff#	8a	8D	8D	8dd	8g	.
8r	.	8r	8r	8r	8r	8r	8r	8r	8r	8r	8r	8r	8r	8r	.
=209	=209	=209	=209	=209	=209	=209	=209	=209	=209	=209	=209	=209	=209	=209	=209
2r	2r	2r	2r	2r	2r	2r	2r	2r	2r	2r	2r	2r	2r	2r	2r
=210	=210	=210	=210	=210	=210	=210	=210	=210	=210	=210	=210	=210	=210	=210	=210
2r	2r	2r	4.r	8r	8r	4GG	4GG	2r	2r	2r	2r	2r	2r	2r	2r
.	.	.	.	16B	8B	.	.	.	.	.	.	.	.	.	.
.	.	.	.	16d	.	.	.	.	.	.	.	.	.	.	.
.	.	.	.	8g	8B	4r	4r	.	.	.	.	.	.	.	.
.	.	.	8gg	8g	8B	.	.	.	.	.	.	.	.	.	.
=211	=211	=211	=211	=211	=211	=211	=211	=211	=211	=211	=211	=211	=211	=211	=211
2r	2r	2r	8ff#	8r	8r	4GG	4GG	2r	2r	2r	8r	2r	2r	2r	2r
.	.	.	8dd	16c	8c	.	.	.	.	.	8A	.	.	.	.
.	.	.	.	16d	.	.	.	.	.	.	.	.	.	.	.
.	.	.	8cc	8f#	8c	4r	4r	.	.	.	8A	.	.	.	.
.	.	.	8a	8f#	8c	.	.	.	.	.	8A	.	.	.	.
=212	=212	=212	=212	=212	=212	=212	=212	=212	=212	=212	=212	=212	=212	=212	=212
2r	2r	2r	4.g	8r	8r	4GG	4GG	2r	2r	2r	4B	2r	2r	2r	2r
.	.	.	.	16B	8B	.	.	.	.	.	.	.	.	.	.
.	.	.	.	16d	.	.	.	.	.	.	.	.	.	.	.
.	.	.	.	8g	8B	4r	4r	.	.	.	4r	.	.	.	.
.	.	.	8gg	8g	8B	.	.	.	.	.	.	.	.	.	.
=213	=213	=213	=213	=213	=213	=213	=213	=213	=213	=213	=213	=213	=213	=213	=213
2r	2r	2r	8ff#	8r	8r	4GG	4GG	2r	2r	2r	8r	2r	2r	2r	2r
.	.	.	8ddd	16c	8c	.	.	.	.	.	8A	.	.	.	.
.	.	.	.	16d	.	.	.	.	.	.	.	.	.	.	.
.	.	.	8ddd	8f#	8c	4r	4r	.	.	.	8A	.	.	.	.
.	.	.	8ddd	8f#	8c	.	.	.	.	.	8A	.	.	.	.
=214	=214	=214	=214	=214	=214	=214	=214	=214	=214	=214	=214	=214	=214	=214	=214
4.r	2r	2r	8.ddd	8r	8r	4GG	4GG	2r	2r	2r	4B	2r	[2g	[2c	2r
.	.	.	.	16B	8B	.	.	.	.	.	.	.	.	.	.
.	.	.	16bb	16d	.	.	.	.	.	.	.	.	.	.	.
.	.	.	8gg	8g	8B	4r	4r	.	.	.	4r	.	.	.	.
8gg	.	.	8gg	8g	8B	.	.	.	.	.	.	.	.	.	.
=215	=215	=215	=215	=215	=215	=215	=215	=215	=215	=215	=215	=215	=215	=215	=215
8ff#	2r	2r	8ff#	8r	8r	4GG	4GG	2r	2r	2r	8r	2r	2g_	2c_	2r
8dd	.	.	8dd	16c	8c	.	.	.	.	.	8A	.	.	.	.
.	.	.	.	16d	.	.	.	.	.	.	.	.	.	.	.
8cc	.	.	8cc	8f#	8c	4r	4r	.	.	.	8A	.	.	.	.
8a	.	.	8a	8f#	8c	.	.	.	.	.	8A	.	.	.	.
=216	=216	=216	=216	=216	=216	=216	=216	=216	=216	=216	=216	=216	=216	=216	=216
4.g	2r	2r	4.g	8r	8r	4GG	4GG	2r	4.r	2r	4B	2r	2g_	2c_	2r
.	.	.	.	16B	8B	.	.	.	.	.	.	.	.	.	.
.	.	.	.	16d	.	.	.	.	.	.	.	.	.	.	.
.	.	.	.	8g	8B	4r	4r	.	.	.	4r	.	.	.	.
8gg	.	.	8gg	8g	8B	.	.	.	8gg	.	.	.	.	.	.
=217	=217	=217	=217	=217	=217	=217	=217	=217	=217	=217	=217	=217	=217	=217	=217
8ff#	2r	2r	8ff#	8r	8r	4GG	4GG	2r	8ff#	2r	8r	2r	2g_	2c_	2r
8ddd	.	.	8ddd	16c	8c	.	.	.	8dd	.	8A	.	.	.	.
.	.	.	.	16d	.	.	.	.	.	.	.	.	.	.	.
8ddd	.	.	8ddd	8f#	8c	4r	4r	.	8cc	.	8A	.	.	.	.
8ddd	.	.	8ddd	8f#	8c	.	.	.	8a	.	8A	.	.	.	.
=218	=218	=218	=218	=218	=218	=218	=218	=218	=218	=218	=218	=218	=218	=218	=218
8.ddd	2r	2r	8.ddd	8r	8r	4GG	4GG	2r	4g	2r	4B	2r	2g]	2c]	2r
.	.	.	.	16B	8B	.	.	.	.	.	.	.	.	.	.
16bb	.	.	16bb	16d	.	.	.	.	.	.	.	.	.	.	.
8gg	.	.	8gg	8g	8B	4r	4r	.	4r	.	4r	.	.	.	.
8gg	.	.	8gg	8g	8B	.	.	.	.	.	.	.	.	.	.
=219	=219	=219	=219	=219	=219	=219	=219	=219	=219	=219	=219	=219	=219	=219	=219
8fff	2r	2r	8ff	8r	8r	4BB	4BB	2r	2r	2r	2r	2r	2r	2r	2r
8ddd	.	.	8dd	16G	8B	.	.	.	.	.	.	.	.	.	.
.	.	.	.	16B	.	.	.	.	.	.	.	.	.	.	.
8bb	.	.	8b	8d	8B	4r	4r	.	.	.	.	.	.	.	.
8ff	.	.	8f	8d	8B	.	.	.	.	.	.	.	.	.	.
=220	=220	=220	=220	=220	=220	=220	=220	=220	=220	=220	=220	=220	=220	=220	=220
4ee	2r	2r	4.e	8r	8r	4C	4C	2r	4.r	2r	2r	2r	2r	2r	2r
.	.	.	.	16G	8c	.	.	.	.	.	.	.	.	.	.
.	.	.	.	16c	.	.	.	.	.	.	.	.	.	.	.
8r	.	.	.	8e	8c	4r	4r	.	.	.	.	.	.	.	.
8eee	.	.	8ee	8cc	8c	.	.	.	8ccc	.	.	.	.	.	.
=221	=221	=221	=221	=221	=221	=221	=221	=221	=221	=221	=221	=221	=221	=221	=221
8ddd	2r	2r	8dd	8b	8r	4D	4D	2r	8bb	2r	2r	2r	2r	2r	2r
8bb	.	.	8b	8g	8d	.	.	.	8gg	.	.	.	.	.	.
8ccc	.	.	8cc	8a	8d	4r	4r	.	8aa	.	.	.	.	.	.
8aa	.	.	8a	8f#	8d	.	.	.	8ff#	.	.	.	.	.	.
=222	=222	=222	=222	=222	=222	=222	=222	=222	=222	=222	=222	=222	=222	=222	=222
8gg	[2g	8GG	8g	8g	8c#	8E	8E	8gg	[2gg	[2cc#	[2E	[2E	8cc	8c	[2g
16bb	.	8GG	16bb	8.c#	8c#	8E	8E	16bb	.	.	.	.	8cc	8c	.
16aa	.	.	16aa	.	.	.	.	16aa	.	.	.	.	.	.	.
16gg	.	8GG	16gg	.	8c#	8E	8E	16gg	.	.	.	.	8cc	8c	.
16ff#	.	.	16ff#	16d	.	.	.	16ff#	.	.	.	.	.	.	.
16ee	.	8GG	16ee	16e	8c#	8E	8E	16ee	.	.	.	.	8cc	8c	.
16dd	.	.	16dd	16f#	.	.	.	16dd	.	.	.	.	.	.	.
=223	=223	=223	=223	=223	=223	=223	=223	=223	=223	=223	=223	=223	=223	=223	=223
4cc#	4g]	4GG	4cc#	4g	4c#	4E	4E	4cc#	16gg]	4cc#]	4E]	4E]	4cc	4c	4g]
.	.	.	.	.	.	.	.	.	16aa	.	.	.	.	.	.
.	.	.	.	.	.	.	.	.	16bb	.	.	.	.	.	.
.	.	.	.	.	.	.	.	.	16aa	.	.	.	.	.	.
4r	4r	4r	4r	4r	4r	4r	4r	4r	16gg	4r	4r	4r	4r	4r	4r
.	.	.	.	.	.	.	.	.	16ff#	.	.	.	.	.	.
.	.	.	.	.	.	.	.	.	16ee	.	.	.	.	.	.
.	.	.	.	.	.	.	.	.	16dd	.	.	.	.	.	.
=224	=224	=224	=224	=224	=224	=224	=224	=224	=224	=224	=224	=224	=224	=224	=224
[2aa	2r	2r	16cc	8cc 8d	8a 8d	8F#	8F#	[2aa	[2cc	[2dd	[2F#	[2F#	2r	2r	2r
.	.	.	16ff#	.	.	.	.	.	.	.	.	.	.	.	.
.	.	.	16aa	8cc 8d	8a 8d	8F#	8F#	.	.	.	.	.	.	.	.
.	.	.	16ff#	.	.	.	.	.	.	.	.	.	.	.	.
.	.	.	16ccc	8cc 8d	8a 8d	8F#	8F#	.	.	.	.	.	.	.	.
.	.	.	16aa	.	.	.	.	.	.	.	.	.	.	.	.
.	.	.	16ff#	8cc 8d	8a 8d	8F#	8F#	.	.	.	.	.	.	.	.
.	.	.	16dd	.	.	.	.	.	.	.	.	.	.	.	.
=225	=225	=225	=225	=225	=225	=225	=225	=225	=225	=225	=225	=225	=225	=225	=225
4aa]	2r	2r	4cc	4cc 4d	4a 4d	4F#	4F#	4aa]	4cc]	4dd]	4F#]	4F#]	2r	2r	2r
8r	.	.	4r	4r	4r	4r	4r	8r	8r	4r	8r	8r	.	.	.
16dd	.	.	.	.	.	.	.	8dd	16d	.	16D	8D	.	.	.
16gg	.	.	.	.	.	.	.	.	16g	.	16G	.	.	.	.
=226	=226	=226	=226	=226	=226	=226	=226	=226	=226	=226	=226	=226	=226	=226	=226
4bb	2r	16GG	2r	2r	2r	2r	2r	4gg	4b	4g	4B	4G	[2C	[2CC	2r
.	.	16GG	.	.	.	.	.	.	.	.	.	.	.	.	.
.	.	16GG	.	.	.	.	.	.	.	.	.	.	.	.	.
.	.	16GG	.	.	.	.	.	.	.	.	.	.	.	.	.
8ccc	.	16GG	.	.	.	.	.	8aa	8cc	8a	8c	8A	.	.	.
.	.	16GG	.	.	.	.	.	.	.	.	.	.	.	.	.
8aa	.	16GG	.	.	.	.	.	8ff#	8a	8f#	8A	8F#	.	.	.
.	.	16GG	.	.	.	.	.	.	.	.	.	.	.	.	.
=227	=227	=227	=227	=227	=227	=227	=227	=227	=227	=227	=227	=227	=227	=227	=227
4gg	2r	16GG	8r	8r	2r	2r	2r	4gg	4g	4g	4G	4G	2C_	2CC_	2r
.	.	16GG	.	.	.	.	.	.	.	.	.	.	.	.	.
.	.	16GG	8g 8B	8d 8G	.	.	.	.	.	.	.	.	.	.	.
.	.	16GG	.	.	.	.	.	.	.	.	.	.	.	.	.
8r	.	16GG	8B 8g	8G 8d	.	.	.	8r	8r	4r	8r	8r	.	.	.
.	.	16GG	.	.	.	.	.	.	.	.	.	.	.	.	.
16gg	.	16GG	8r	8r	.	.	.	8gg	16g	.	16G	8G	.	.	.
16bb	.	16GG	.	.	.	.	.	.	16b	.	16B	.	.	.	.
=228	=228	=228	=228	=228	=228	=228	=228	=228	=228	=228	=228	=228	=228	=228	=228
4ddd	2r	16GG	2r	2r	2r	2r	2r	4bb	4dd	4b	4d	4B	2C_	2CC_	2r
.	.	16GG	.	.	.	.	.	.	.	.	.	.	.	.	.
.	.	16GG	.	.	.	.	.	.	.	.	.	.	.	.	.
.	.	16GG	.	.	.	.	.	.	.	.	.	.	.	.	.
8eee	.	16GG	.	.	.	.	.	8ccc	8ee	8cc	8e	8c	.	.	.
.	.	16GG	.	.	.	.	.	.	.	.	.	.	.	.	.
8ccc	.	16GG	.	.	.	.	.	8aa	8cc	8a	8c	8A	.	.	.
.	.	16GG	.	.	.	.	.	.	.	.	.	.	.	.	.
=229	=229	=229	=229	=229	=229	=229	=229	=229	=229	=229	=229	=229	=229	=229	=229
4bb	2r	16GG	8r	8r	2r	2r	2r	4gg	4b	4g	4B	4G	2C_	2CC_	2r
.	.	16GG	.	.	.	.	.	.	.	.	.	.	.	.	.
.	.	16GG	8B 8g	8d 8G	.	.	.	.	.	.	.	.	.	.	.
.	.	16GG	.	.	.	.	.	.	.	.	.	.	.	.	.
8r	.	16GG	8g 8B	8G 8d	.	.	.	8r	8r	8r	8r	8r	.	.	.
.	.	16GG	.	.	.	.	.	.	.	.	.	.	.	.	.
8eee	.	16GG	8r	8r	.	.	.	8ccc	8ee	8cc	8e	8c	.	.	.
.	.	16GG	.	.	.	.	.	.	.	.	.	.	.	.	.
=230	=230	=230	=230	=230	=230	=230	=230	=230	=230	=230	=230	=230	=230	=230	=230
4ddd	2r	16GG	8r	8r	2r	2r	2r	4bb	4dd	4b	4d	4B	2C_	2CC_	2r
.	.	16GG	.	.	.	.	.	.	.	.	.	.	.	.	.
.	.	16GG	8g 8B	8G 8d	.	.	.	.	.	.	.	.	.	.	.
.	.	16GG	.	.	.	.	.	.	.	.	.	.	.	.	.
8r	.	16GG	8B 8g	8G 8d	.	.	.	8r	8r	8r	8r	8r	.	.	.
.	.	16GG	.	.	.	.	.	.	.	.	.	.	.	.	.
8ccc	.	16GG	8r	8r	.	.	.	8aa	8ccc	8ff#	8f#	8A	.	.	.
.	.	16GG	.	.	.	.	.	.	.	.	.	.	.	.	.
=231	=231	=231	=231	=231	=231	=231	=231	=231	=231	=231	=231	=231	=231	=231	=231
4bb	2r	16GG	8r	8r	2r	2r	2r	4gg	4bb	4gg	4g	4B	2C_	2CC_	2r
.	.	16GG	.	.	.	.	.	.	.	.	.	.	.	.	.
.	.	16GG	8g 8B	8G 8d	.	.	.	.	.	.	.	.	.	.	.
.	.	16GG	.	.	.	.	.	.	.	.	.	.	.	.	.
8r	.	16GG	8g 8B	8G 8d	.	.	.	8r	8r	8r	8r	8r	.	.	.
.	.	16GG	.	.	.	.	.	.	.	.	.	.	.	.	.
8eee	.	16GG	8r	8r	.	.	.	8ccc	8ee	8cc	8e	8c	.	.	.
.	.	16GG	.	.	.	.	.	.	.	.	.	.	.	.	.
=232	=232	=232	=232	=232	=232	=232	=232	=232	=232	=232	=232	=232	=232	=232	=232
4ddd	2r	16GG	8r	8r	2r	2r	2r	4bb	4dd	4b	4d	4B	2C_	2CC_	2r
.	.	16GG	.	.	.	.	.	.	.	.	.	.	.	.	.
.	.	16GG	8g 8B	8G 8d	.	.	.	.	.	.	.	.	.	.	.
.	.	16GG	.	.	.	.	.	.	.	.	.	.	.	.	.
8r	.	16GG	8g 8B	8G 8d	.	.	.	8r	8r	8r	8r	8r	.	.	.
.	.	16GG	.	.	.	.	.	.	.	.	.	.	.	.	.
8ccc	.	16GG	8r	8r	.	.	.	8aa	8ccc	8ff#	8f#	8A	.	.	.
.	.	16GG	.	.	.	.	.	.	.	.	.	.	.	.	.
=233	=233	=233	=233	=233	=233	=233	=233	=233	=233	=233	=233	=233	=233	=233	=233
4bb	2r	16GG	4.r	2r	2r	2r	2r	4gg	4bb	4gg	4g	4B	2C_	2CC_	2r
.	.	16GG	.	.	.	.	.	.	.	.	.	.	.	.	.
.	.	16GG	.	.	.	.	.	.	.	.	.	.	.	.	.
.	.	16GG	.	.	.	.	.	.	.	.	.	.	.	.	.
4r	.	16GG	.	.	.	.	.	4r	8r	4r	4r	4r	.	.	.
.	.	16GG	.	.	.	.	.	.	.	.	.	.	.	.	.
.	.	16GG	16g	.	.	.	.	.	16g	.	.	.	.	.	.
.	.	16GG	16b-	.	.	.	.	.	16b-	.	.	.	.	.	.
=234	=234	=234	=234	=234	=234	=234	=234	=234	=234	=234	=234	=234	=234	=234	=234
[2bb-	2g	16GG	4ee-	16B-	16G 16e-	8G	8G	[2bb-	4ee-	2ee-	2G	2G	2C]	2CC]	2g
.	.	16GG	.	16e-	16e- 16G	.	.	.	.	.	.	.	.	.	.
.	.	16GG	.	16B-	16e- 16G	8G	8G	.	.	.	.	.	.	.	.
.	.	16GG	.	16e-	16e- 16G	.	.	.	.	.	.	.	.	.	.
.	.	16GG	8gg	16B-	16e- 16G	8G	8G	.	8gg	.	.	.	.	.	.
.	.	16GG	.	16e-	16G 16e-	.	.	.	.	.	.	.	.	.	.
.	.	16GG	8ee-	16B-	16e- 16G	8G	8G	.	8ee-	.	.	.	.	.	.
.	.	16GG	.	16e-	16G 16e-	.	.	.	.	.	.	.	.	.	.
=235	=235	=235	=235	=235	=235	=235	=235	=235	=235	=235	=235	=235	=235	=235	=235
2bb-_	2r	16GG	8dd	16B-	16A- 16d	8A-	8A-	2bb-_	2dd	2ff	2A-	2A-	2r	2r	2r
.	.	16GG	.	16a-	16A- 16d	.	.	.	.	.	.	.	.	.	.
.	.	16GG	8dd	16B-	16A- 16d	8A-	8A-	.	.	.	.	.	.	.	.
.	.	16GG	.	16a-	16A- 16d	.	.	.	.	.	.	.	.	.	.
.	.	16GG	8dd	16B-	16A- 16d	8A-	8A-	.	.	.	.	.	.	.	.
.	.	16GG	.	16a-	16d 16A-	.	.	.	.	.	.	.	.	.	.
.	.	16GG	8bb-	16B-	16A- 16d	8A-	8A-	.	.	.	.	.	.	.	.
.	.	16GG	.	16a-	16A- 16d	.	.	.	.	.	.	.	.	.	.
=236	=236	=236	=236	=236	=236	=236	=236	=236	=236	=236	=236	=236	=236	=236	=236
2bb-]	2r	2r	8ee-	16B-	16e- 16G	8G	8G	2bb-]	2ee-	2ee-	2G	2G	2r	2r	2r
.	.	.	.	16e-	16e- 16G	.	.	.	.	.	.	.	.	.	.
.	.	.	8ee-	16B-	16e- 16G	8G	8G	.	.	.	.	.	.	.	.
.	.	.	.	16e-	16e- 16G	.	.	.	.	.	.	.	.	.	.
.	.	.	8ee-	16B-	16G 16e-	8G	8G	.	.	.	.	.	.	.	.
.	.	.	.	16e-	16G 16e-	.	.	.	.	.	.	.	.	.	.
.	.	.	8eee-	16B-	16e- 16G	8G	8G	.	.	.	.	.	.	.	.
.	.	.	.	16e-	16e- 16G	.	.	.	.	.	.	.	.	.	.
=237	=237	=237	=237	=237	=237	=237	=237	=237	=237	=237	=237	=237	=237	=237	=237
2ddd	2r	2r	8dd	16B-	16d 16B-	8G	8G	2ddd	2dd	2dd	2B-	2B-	2r	2r	2r
.	.	.	.	16d	16d 16B-	.	.	.	.	.	.	.	.	.	.
.	.	.	8dd	16B-	16B- 16d	8G	8G	.	.	.	.	.	.	.	.
.	.	.	.	16d	16B- 16d	.	.	.	.	.	.	.	.	.	.
.	.	.	8dd	16B-	16B- 16d	8G	8G	.	.	.	.	.	.	.	.
.	.	.	.	16d	16B- 16d	.	.	.	.	.	.	.	.	.	.
.	.	.	8ddd	16B-	16B- 16d	8G	8G	.	.	.	.	.	.	.	.
.	.	.	.	16d	16B- 16d	.	.	.	.	.	.	.	.	.	.
=238	=238	=238	=238	=238	=238	=238	=238	=238	=238	=238	=238	=238	=238	=238	=238
[2ccc#	2r	2r	8cc#	16B-	16G 16e	8G	8G	[2ccc#	[2cc#	[2ee	[2B-	[2B-	2r	2r	2r
.	.	.	.	16e	16G 16e	.	.	.	.	.	.	.	.	.	.
.	.	.	8cc#	16B-	16G 16e	8G	8G	.	.	.	.	.	.	.	.
.	.	.	.	16e	16G 16e	.	.	.	.	.	.	.	.	.	.
.	.	.	8cc#	16B-	16G 16e	8G	8G	.	.	.	.	.	.	.	.
.	.	.	.	16e	16e 16G	.	.	.	.	.	.	.	.	.	.
.	.	.	8ccc#	16B-	16G 16e	8G	8G	.	.	.	.	.	.	.	.
.	.	.	.	16e	16G 16e	.	.	.	.	.	.	.	.	.	.
=239	=239	=239	=239	=239	=239	=239	=239	=239	=239	=239	=239	=239	=239	=239	=239
4ccc#]	2r	2r	4cc#	4B-	4G 4e	4G	4G	4ccc#]	4cc#]	4ee]	4B-]	4B-]	2r	2r	2r
4r	.	.	8r	4r	4r	4r	4r	4r	4r	4r	4r	4r	.	.	.
.	.	.	8gg	.	.	.	.	.	.	.	.	.	.	.	.
=240	=240	=240	=240	=240	=240	=240	=240	=240	=240	=240	=240	=240	=240	=240	=240
2r	2r	2r	8cc#	4g	4e	2r	2r	2r	2r	2r	2r	2r	2r	2r	2r
.	.	.	8cc#	.	.	.	.	.	.	.	.	.	.	.	.
.	.	.	8cc#	4r	4r	.	.	.	.	.	.	.	.	.	.
.	.	.	8aa	.	.	.	.	.	.	.	.	.	.	.	.
=241	=241	=241	=241	=241	=241	=241	=241	=241	=241	=241	=241	=241	=241	=241	=241
2r	2r	2r	8cc	4a	4f#	4.r	4.r	2r	2r	2r	2r	2r	2r	2r	2r
.	.	.	8cc	.	.	.	.	.	.	.	.	.	.	.	.
.	.	.	8cc	8r	8r	.	.	.	.	.	.	.	.	.	.
.	.	.	8ee	8ee	8ee	8e	8e	.	.	.	.	.	.	.	.
=242	=242	=242	=242	=242	=242	=242	=242	=242	=242	=242	=242	=242	=242	=242	=242
2r	2r	2r	16a	16a	16a	8A	8A	2r	2r	2r	2r	2r	2r	2r	2r
.	.	.	16a	16a	16a	.	.	.	.	.	.	.	.	.	.
.	.	.	16cc	16cc	16cc	8c	8c	.	.	.	.	.	.	.	.
.	.	.	16cc	16cc	16cc	.	.	.	.	.	.	.	.	.	.
.	.	.	16f#	16f#	16f#	8F#	8F#	.	.	.	.	.	.	.	.
.	.	.	16f#	16f#	16f#	.	.	.	.	.	.	.	.	.	.
.	.	.	16a	16a	16a	8A	8A	.	.	.	.	.	.	.	.
.	.	.	16a	16a	16a	.	.	.	.	.	.	.	.	.	.
=243	=243	=243	=243	=243	=243	=243	=243	=243	=243	=243	=243	=243	=243	=243	=243
2r	2r	2r	16c	16c	16c	8C	8C	2r	2r	2r	2r	2r	2r	2r	2r
.	.	.	16c	16c	16c	.	.	.	.	.	.	.	.	.	.
.	.	.	16e	16e	16e	8E	8E	.	.	.	.	.	.	.	.
.	.	.	16e	16e	16e	.	.	.	.	.	.	.	.	.	.
.	.	.	16A	16A	16A	8AA	8AA	.	.	.	.	.	.	.	.
.	.	.	16A	16A	16A	.	.	.	.	.	.	.	.	.	.
.	.	.	16c	16c	16c	8C	8C	.	.	.	.	.	.	.	.
.	.	.	16c	16c	16c	.	.	.	.	.	.	.	.	.	.
=244	=244	=244	=244	=244	=244	=244	=244	=244	=244	=244	=244	=244	=244	=244	=244
4gg	4g	4GG	16B	16B	16B	16BB	16BB	4gg	4gg	4b	4B	4G	4cc	4e	4dd
.	.	.	16c	16c	16c	16C	16C	.	.	.	.	.	.	.	.
.	.	.	16B	16B	16B	16BB	16BB	.	.	.	.	.	.	.	.
.	.	.	16A	16A	16A	16AA	16AA	.	.	.	.	.	.	.	.
4r	4r	4r	16G	16G	16G	16GG	16GG	4r	4r	4r	4r	4r	4r	4r	4r
.	.	.	16e	16e	16e	16E	16E	.	.	.	.	.	.	.	.
.	.	.	16d	16d	16d	16D	16D	.	.	.	.	.	.	.	.
.	.	.	16c	16c	16c	16C	16C	.	.	.	.	.	.	.	.
=245	=245	=245	=245	=245	=245	=245	=245	=245	=245	=245	=245	=245	=245	=245	=245
4gg	4g	4GG	16B	16B	16B	16BB	16BB	4gg	4gg	4b	4B	4G	4cc	4e	4dd
.	.	.	16c	16c	16c	16C	16C	.	.	.	.	.	.	.	.
.	.	.	16B	16B	16B	16BB	16BB	.	.	.	.	.	.	.	.
.	.	.	16A	16A	16A	16AA	16AA	.	.	.	.	.	.	.	.
4r	4r	4r	16G	16G	16G	16GG	16GG	4r	4r	4r	4r	4r	4r	4r	4r
.	.	.	16e	16e	16e	16E	16E	.	.	.	.	.	.	.	.
.	.	.	16d	16d	16d	16D	16D	.	.	.	.	.	.	.	.
.	.	.	16c	16c	16c	16C	16C	.	.	.	.	.	.	.	.
=246	=246	=246	=246	=246	=246	=246	=246	=246	=246	=246	=246	=246	=246	=246	=246
4gg	4g	4GG	16B	16B	16B	16BB	16BB	4gg	4gg	4b	4B	4G	4cc	4e	4dd
.	.	.	16g	16g	16g	16G	16G	.	.	.	.	.	.	.	.
.	.	.	16f#	16f#	16f#	16F#	16F#	.	.	.	.	.	.	.	.
.	.	.	16e	16e	16e	16E	16E	.	.	.	.	.	.	.	.
4r	4r	4r	16d	16d	16d	16D	16D	4r	4r	4r	4r	4r	4r	4r	4r
.	.	.	16cc	16cc	16cc	16c	16c	.	.	.	.	.	.	.	.
.	.	.	16b	16b	16b	16B	16B	.	.	.	.	.	.	.	.
.	.	.	16a	16a	16a	16A	16A	.	.	.	.	.	.	.	.
=247	=247	=247	=247	=247	=247	=247	=247	=247	=247	=247	=247	=247	=247	=247	=247
4gg	4g	4GG	16g	16g	16g	16G	16G	4gg	4gg	4b	4B	4G	4cc	4e	4dd
.	.	.	16cc	16cc	16cc	16c	16c	.	.	.	.	.	.	.	.
.	.	.	16b	16b	16b	16B	16B	.	.	.	.	.	.	.	.
.	.	.	16a	16a	16a	16A	16A	.	.	.	.	.	.	.	.
4r	4r	4r	16g	16g	16g	16G	16G	4r	4r	4r	4r	4r	4r	4r	4r
.	.	.	16cc	16cc	16cc	16c	16c	.	.	.	.	.	.	.	.
.	.	.	16b	16b	16b	16B	16B	.	.	.	.	.	.	.	.
.	.	.	16a	16a	16a	16A	16A	.	.	.	.	.	.	.	.
=248	=248	=248	=248	=248	=248	=248	=248	=248	=248	=248	=248	=248	=248	=248	=248
4gg	4g	4GG	16g	16g	16g	16G	16G	4gg	4gg	4b	4B	4G	4cc	4e	4dd
.	.	.	16ee	16ee	16cc	16c	16c	.	.	.	.	.	.	.	.
.	.	.	16dd	16dd	16b	16B	16B	.	.	.	.	.	.	.	.
.	.	.	16cc	16cc	16a	16A	16A	.	.	.	.	.	.	.	.
4r	4r	4r	16b	16b	16g	16G	16G	4r	4r	4r	4r	4r	4r	4r	4r
.	.	.	16ee	16ee	16cc	16c	16c	.	.	.	.	.	.	.	.
.	.	.	16dd	16dd	16b	16B	16B	.	.	.	.	.	.	.	.
.	.	.	16cc	16cc	16a	16A	16A	.	.	.	.	.	.	.	.
=249	=249	=249	=249	=249	=249	=249	=249	=249	=249	=249	=249	=249	=249	=249	=249
[2ddd	[2g	8GG	16b	16d 16b	16g	16G	16G	[2ddd	[2bb	[2dd	[2d	[2B	[2ee	[2cc	[2dd
.	.	.	16b	16d 16b	16g	16G	16G	.	.	.	.	.	.	.	.
.	.	16GG	16dd	16d 16b	16g	16G	16G	.	.	.	.	.	.	.	.
.	.	16GG	16dd	16b 16d	16g	16G	16G	.	.	.	.	.	.	.	.
.	.	8GG	16gg	16b 16d	16g	16G	16G	.	.	.	.	.	.	.	.
.	.	.	16gg	16b 16d	16g	16G	16G	.	.	.	.	.	.	.	.
.	.	8GG	16bb	16b 16d	16g	16G	16G	.	.	.	.	.	.	.	.
.	.	.	16bb	16b 16d	16g	16G	16G	.	.	.	.	.	.	.	.
=250	=250	=250	=250	=250	=250	=250	=250	=250	=250	=250	=250	=250	=250	=250	=250
2ddd]	2g]	8GG	16ddd	16d 16b	16g	16G	16G	2ddd]	2bb]	2dd]	2d]	2B]	2ee]	2cc]	2dd]
.	.	.	16ddd	16b 16d	16g	16G	16G	.	.	.	.	.	.	.	.
.	.	8GG	16bb	16b 16d	16g	16G	16G	.	.	.	.	.	.	.	.
.	.	.	16bb	16d 16b	16g	16G	16G	.	.	.	.	.	.	.	.
.	.	8GG	16gg	16d 16b	16g	16G	16G	.	.	.	.	.	.	.	.
.	.	.	16gg	16b 16d	16g	16G	16G	.	.	.	.	.	.	.	.
.	.	8GG	16dd	16d 16b	16g	16G	16G	.	.	.	.	.	.	.	.
.	.	.	16dd	16b 16d	16g	16G	16G	.	.	.	.	.	.	.	.
=251	=251	=251	=251	=251	=251	=251	=251	=251	=251	=251	=251	=251	=251	=251	=251
2eee	[2cc	8GG	16ee	16cc	16c	16C	16C	2eee	4ccc	[2ee	[2e	[2c	[2cc	[2cc	[2ee
.	.	.	16ee	16cc	16c	16C	16C	.	.	.	.	.	.	.	.
.	.	16GG	16gg	16ee	16c	16C	16C	.	.	.	.	.	.	.	.
.	.	16GG	16gg	16ee	16c	16C	16C	.	.	.	.	.	.	.	.
.	.	8GG	16ccc	16gg	16c	16C	16C	.	[4gg	.	.	.	.	.	.
.	.	.	16ccc	16gg	16c	16C	16C	.	.	.	.	.	.	.	.
.	.	8GG	16eee	16ccc	16c	16C	16C	.	.	.	.	.	.	.	.
.	.	.	16eee	16ccc	16c	16C	16C	.	.	.	.	.	.	.	.
=252	=252	=252	=252	=252	=252	=252	=252	=252	=252	=252	=252	=252	=252	=252	=252
4ggg	2cc]	8GG	16ggg	16eee	16c	16C	16C	4ggg	4gg]	2ee]	2e]	2c]	2cc]	2cc]	2ee]
.	.	.	16ggg	16eee	16c	16C	16C	.	.	.	.	.	.	.	.
.	.	8GG	16eee	16ccc	16c	16C	16C	.	.	.	.	.	.	.	.
.	.	.	16eee	16ccc	16c	16C	16C	.	.	.	.	.	.	.	.
4eee	.	8GG	16ggg	16eee	16c	16C	16C	4eee	4ccc	.	.	.	.	.	.
.	.	.	16ggg	16eee	16c	16C	16C	.	.	.	.	.	.	.	.
.	.	8GG	16eee	16ccc	16c	16C	16C	.	.	.	.	.	.	.	.
.	.	.	16eee	16ccc	16c	16C	16C	.	.	.	.	.	.	.	.
=253	=253	=253	=253	=253	=253	=253	=253	=253	=253	=253	=253	=253	=253	=253	=253
4ddd	[2dd	8GG	16ddd	16bb	16d	16D	16D	4ddd	2bb	2gg	2B	2G	2ee	2cc	[2dd
.	.	.	16ddd	16bb	16d	16D	16D	.	.	.	.	.	.	.	.
.	.	16GG	16bb	16gg	16d	16D	16D	.	.	.	.	.	.	.	.
.	.	16GG	16bb	16gg	16d	16D	16D	.	.	.	.	.	.	.	.
4bb	.	8GG	16ddd	16bb	8d	8D	8D	4bb	.	.	.	.	.	.	.
.	.	.	16ddd	16bb	.	.	.	.	.	.	.	.	.	.	.
.	.	8GG	16bb	16gg	8dd	8d	8d	.	.	.	.	.	.	.	.
.	.	.	16bb	16gg	.	.	.	.	.	.	.	.	.	.	.
=254	=254	=254	=254	=254	=254	=254	=254	=254	=254	=254	=254	=254	=254	=254	=254
4ccc	2dd_	8D	16dd	16dd	8f#	8F#	8F#	4ccc	2aa	2dd	2A	2D	2dd	2g	2dd_
.	.	.	16ee	16ee	.	.	.	.	.	.	.	.	.	.	.
.	.	16D	16ff#	16ff#	8f#	8F#	8F#	.	.	.	.	.	.	.	.
.	.	16D	16gg	16gg	.	.	.	.	.	.	.	.	.	.	.
4dd	.	8D	16aa	16aa	8f#	8F#	8F#	4dd	.	.	.	.	.	.	.
.	.	.	16bb	16bb	.	.	.	.	.	.	.	.	.	.	.
.	.	8D	16ccc	16ccc	8f#	8F#	8F#	.	.	.	.	.	.	.	.
.	.	.	16aa	16aa	.	.	.	.	.	.	.	.	.	.	.
=255	=255	=255	=255	=255	=255	=255	=255	=255	=255	=255	=255	=255	=255	=255	=255
4bb	2dd_	4GG	16bb	16bb	4g	4G	4G	4bb	2bb	2gg	4G	4BB	2ee	2cc	2dd_
.	.	.	16ccc	16ccc	.	.	.	.	.	.	.	.	.	.	.
.	.	.	16bb	16bb	.	.	.	.	.	.	.	.	.	.	.
.	.	.	16aa	16aa	.	.	.	.	.	.	.	.	.	.	.
4gg	.	4r	8gg	8gg	4r	4r	4r	4gg	.	.	4r	4r	.	.	.
.	.	.	8ddd	8ddd	.	.	.	.	.	.	.	.	.	.	.
=256	=256	=256	=256	=256	=256	=256	=256	=256	=256	=256	=256	=256	=256	=256	=256
2ff#	2dd]	4D	8ff#	16d	2r	2r	2r	2ff#	2aa	2dd	2A	2D	2dd	2g	2dd]
.	.	.	.	16e	.	.	.	.	.	.	.	.	.	.	.
.	.	.	8ff#	16f#	.	.	.	.	.	.	.	.	.	.	.
.	.	.	.	16g	.	.	.	.	.	.	.	.	.	.	.
.	.	4r	8ff#	16a	.	.	.	.	.	.	.	.	.	.	.
.	.	.	.	16b	.	.	.	.	.	.	.	.	.	.	.
.	.	.	8ff#	16cc	.	.	.	.	.	.	.	.	.	.	.
.	.	.	.	16a	.	.	.	.	.	.	.	.	.	.	.
=257	=257	=257	=257	=257	=257	=257	=257	=257	=257	=257	=257	=257	=257	=257	=257
4gg	2g	4GG	4gg	16b	4.r	4.r	4.r	4gg	4.gg	4.gg	4B	4G	2ee	2cc	2gg
.	.	.	.	16cc	.	.	.	.	.	.	.	.	.	.	.
.	.	.	.	16b	.	.	.	.	.	.	.	.	.	.	.
.	.	.	.	16a	.	.	.	.	.	.	.	.	.	.	.
4r	.	4r	8r	8g	.	.	.	4r	.	.	4r	4r	.	.	.
.	.	.	8ee	8ee	8ee	8e	8e	.	8ee	8ee	.	.	.	.	.
=258	=258	=258	=258	=258	=258	=258	=258	=258	=258	=258	=258	=258	=258	=258	=258
2aa	2dd	8D	16d	16d	16d	16D	16D	2aa	4.dd	4.dd	2A	2D	2dd	2g	2dd
.	.	.	16e	16e	16e	16E	16E	.	.	.	.	.	.	.	.
.	.	16D	16d	16d	16d	16D	16D	.	.	.	.	.	.	.	.
.	.	16D	16c	16c	16c	16C	16C	.	.	.	.	.	.	.	.
.	.	8D	16B	16B	16B	16BB	16BB	.	.	.	.	.	.	.	.
.	.	.	16c	16c	16c	16C	16C	.	.	.	.	.	.	.	.
.	.	8D	16B	16B	16B	16BB	16BB	.	8ff#	8cc	.	.	.	.	.
.	.	.	16A	16A	16A	16AA	16AA	.	.	.	.	.	.	.	.
=259	=259	=259	=259	=259	=259	=259	=259	=259	=259	=259	=259	=259	=259	=259	=259
4.bb	4.g	4GG	8G	8G	8G	8GG	8GG	4.bb	4.gg	4.b	4.B	4.G	4.cc	4.e	4.gg
.	.	.	8G	8G	8G	8GG	8GG	.	.	.	.	.	.	.	.
.	.	8r	8G	8G	8G	8GG	8GG	.	.	.	.	.	.	.	.
8aa	8dd	8D	8a	8a	8a	8A	8A	8aa	8ff#	8cc	8A	8F#	8dd	8g	8dd
=260	=260	=260	=260	=260	=260	=260	=260	=260	=260	=260	=260	=260	=260	=260	=260
4.bb	4.g	4GG	8G	8G	8G	8GG	8GG	4.bb	4.gg	4.b	4.B	4.G	4.cc	4.e	4.gg
.	.	.	8G	8G	8G	8GG	8GG	.	.	.	.	.	.	.	.
.	.	8r	8G	8G	8G	8GG	8GG	.	.	.	.	.	.	.	.
8aa	8dd	8D	8a	8a	8a	8A	8A	8aa	8ff#	8cc	8A	8F#	8dd	8g	8dd
=261	=261	=261	=261	=261	=261	=261	=261	=261	=261	=261	=261	=261	=261	=261	=261
8bb	8g	8GG	8G	8G	8G	8GG	8GG	8bb	8gg	8b	8B	8G	8ee	8cc	8gg
8aa	8dd	8D	8a	8a	8a	8A	8A	8aa	8ff#	8cc	8A	8F#	8dd	8g	8dd
8bb	8g	8GG	8G	8G	8G	8GG	8GG	8bb	8gg	8b	8B	8G	8ee	8cc	8gg
8aa	8dd	8D	8a	8a	8a	8A	8A	8aa	8ff#	8cc	8A	8F#	8dd	8g	8dd
=262	=262	=262	=262	=262	=262	=262	=262	=262	=262	=262	=262	=262	=262	=262	=262
4bb	4g	4GG	4G	4G	4G	4GG	4GG	4bb	4gg	4b	4B	4G	4ee	4cc	4gg
4ddd	4dd	4D	4a 4d 4ff#	4ff# 4d 4a	4dd	4d	4d	4ddd	4ff#	4cc	4d	4d	4dd	4g	4dd
=263	=263	=263	=263	=263	=263	=263	=263	=263	=263	=263	=263	=263	=263	=263	=263
4bb	4g	4GG	4gg 4b 4d	4gg 4d 4b	4b	4B	4B	4bb	4gg	4b	4B	4B	4ee	4cc	4gg
4aa	4dd	4D	4dd 4aa	4d 4cc	4d	4D	4D	4aa	4aa	4ff#	4D	4D	4dd	4g	4dd
=264	=264	=264	=264	=264	=264	=264	=264	=264	=264	=264	=264	=264	=264	=264	=264
4gg	4g	4GG	4d 4bb 4dd	4b 4d	4G	4GG	4GG	4gg	4bb	4gg	4B	4B	4ee	4cc	4gg
4r	4r	4r	4r	4r	4r	4r	4r	4r	4r	4r	4r	4r	4r	4r	4r
=265	=265	=265	=265	=265	=265	=265	=265	=265	=265	=265	=265	=265	=265	=265	=265
4ddd	2r	2r	2r	2r	2r	2r	2r	4ddd	4aa	4ff#	4d	4D	2r	2r	2r
4r	.	.	.	.	.	.	.	4r	4r	4r	4r	4r	.	.	.
=266	=266	=266	=266	=266	=266	=266	=266	=266	=266	=266	=266	=266	=266	=266	=266
4bb	2r	2r	2r	2r	2r	2r	2r	4bb	4bb	4gg	4d	4G	2r	2r	2r
4r	.	.	.	.	.	.	.	4r	4r	4r	4r	4r	.	.	.
=267	=267	=267	=267	=267	=267	=267	=267	=267	=267	=267	=267	=267	=267	=267	=267
4aa	4dd	4D	4ff# 4a 4d	4ff# 4a 4d	4d	4D	4D	4aa	4ff#	4cc	4d	4D	4dd	4g	4dd
4r	4r	4r	4r	4r	4r	4r	4r	4r	4r	4r	4r	4r	4r	4r	4r
=268	=268	=268	=268	=268	=268	=268	=268	=268	=268	=268	=268	=268	=268	=268	=268
4bb	4g	4GG	4gg 4b 4d	4b 4d 4gg	4G	4GG	4GG	4bb	4gg	4b	4B	4G	4ee	4cc	4gg
4r	4r	4r	4r	4r	4r	4r	4r	4r	4r	4r	4r	4r	4r	4r	4r
==	==	==	==	==	==	==	==	==	==	==	==	==	==	==	==
*-	*-	*-	*-	*-	*-	*-	*-	*-	*-	*-	*-	*-	*-	*-	*-
!!!RWG1: This file contains only pitch and duration data.
!!!RWG2: Transposing instruments are not transposed.
!!!RWG3: Spines may have incompatible meters.
!!!RWG4: Durations of rests and tied notes may be interpreted.
!!!RWG: Key is interpreted using the Humdrum key tool.
!!!OPT: The Surprise
!!!AFT: stage1
!!!END: 1997/04/15
!!format changes:
!!content changes:
!!public access: complete
!!!KEY: 1645987553
!!!EMD: Converted from MuseData to Humdrum Dec 16, 2000, by Andreas Kornstaedt using muse2kern.
